; generated by Slic3r 0.9.10b on 2014-02-27 at 18:41:29

; H-PLA-03-025-1

; layer_height = 0.25
; perimeters = 2
; top_solid_layers = 4
; bottom_solid_layers = 3
; fill_density = 0.2
; perimeter_speed = 20
; infill_speed = 32
; travel_speed = 250
; nozzle_diameter = 0.3
; filament_diameter = 1.75
; extrusion_multiplier = 1
; perimeters extrusion width = 0.32mm
; infill extrusion width = 0.32mm
; solid infill extrusion width = 0.32mm
; top infill extrusion width = 0.32mm
; first layer extrusion width = 0.90mm

G21 ; set units to millimeters
M107
M190 S80 ; wait for bed temperature to be reached
M104 S210 ; set temperature
G28
G1 Z0.25 F200
G1 X15 Y20 F12000
M109 S210 ; wait for temperature to be reached
G90 ; use absolute coordinates
G92 E0
M82 ; use absolute distances for extrusion
G1 F2220.000 E-1.75000
G1 Z1.300 F15000.000
G92 E0
G1 X66.866 Y66.396
G1 Z0.300
G1 F2220.000 E1.75000
G1 X67.726 Y65.616 F240.000 E1.87101
G1 X68.246 Y65.186 E1.94133
G1 X69.176 Y64.496 E2.06202
G1 X69.656 Y64.166 E2.12273
G1 X70.646 Y63.556 E2.24393
G1 X71.276 Y63.216 E2.31854
G1 X72.336 Y62.706 E2.44114
G1 X72.976 Y62.436 E2.51353
G1 X74.086 Y62.036 E2.63650
G1 X74.696 Y61.846 E2.70309
G1 X75.856 Y61.546 E2.82797
G1 X76.546 Y61.406 E2.90135
G1 X77.736 Y61.226 E3.02679
G1 X78.426 Y61.156 E3.09907
G1 X79.666 Y61.096 E3.22846
G1 X80.326 Y61.096 E3.29724
G1 X81.556 Y61.156 E3.42559
G1 X82.236 Y61.226 E3.49684
G1 X83.436 Y61.406 E3.62330
G1 X84.136 Y61.546 E3.69770
G1 X85.296 Y61.846 E3.82258
G1 X85.906 Y62.036 E3.88917
G1 X87.016 Y62.436 E4.01214
G1 X87.686 Y62.716 E4.08782
G1 X88.736 Y63.226 E4.20948
G1 X89.306 Y63.536 E4.27711
G1 X90.306 Y64.146 E4.39919
G1 X90.816 Y64.496 E4.46366
G1 X91.746 Y65.186 E4.58435
G1 X92.266 Y65.616 E4.65467
G1 X93.126 Y66.396 E4.77568
G1 X93.596 Y66.866 E4.84495
G1 X94.376 Y67.726 E4.96596
G1 X94.806 Y68.246 E5.03629
G1 X95.496 Y69.176 E5.15698
G1 X95.826 Y69.656 E5.21769
G1 X96.436 Y70.646 E5.33888
G1 X96.796 Y71.316 E5.41815
G1 X97.296 Y72.376 E5.54030
G1 X97.526 Y72.926 E5.60244
G1 X97.936 Y74.036 E5.72576
G1 X98.146 Y74.696 E5.79795
G1 X98.446 Y75.856 E5.92283
G1 X98.586 Y76.546 E5.99621
G1 X98.766 Y77.736 E6.12164
G1 X98.836 Y78.426 E6.19392
G1 X98.896 Y79.666 E6.32331
G1 X98.896 Y80.326 E6.39210
G1 X98.836 Y81.556 E6.52045
G1 X98.766 Y82.236 E6.59169
G1 X98.586 Y83.436 E6.71816
G1 X98.446 Y84.136 E6.79256
G1 X98.146 Y85.296 E6.91744
G1 X97.936 Y85.956 E6.98962
G1 X97.526 Y87.066 E7.11295
G1 X97.286 Y87.636 E7.17741
G1 X96.786 Y88.686 E7.29862
G1 X96.456 Y89.306 E7.37182
G1 X95.846 Y90.306 E7.49390
G1 X95.496 Y90.816 E7.55837
G1 X94.806 Y91.746 E7.67906
G1 X94.376 Y92.266 E7.74939
G1 X93.596 Y93.126 E7.87039
G1 X93.126 Y93.596 E7.93967
G1 X92.266 Y94.376 E8.06067
G1 X91.746 Y94.806 E8.13100
G1 X90.816 Y95.496 E8.25169
G1 X90.306 Y95.846 E8.31616
G1 X89.306 Y96.456 E8.43824
G1 X88.686 Y96.786 E8.51144
G1 X87.636 Y97.286 E8.63265
G1 X87.066 Y97.526 E8.69711
G1 X85.956 Y97.936 E8.82044
G1 X85.296 Y98.146 E8.89262
G1 X84.136 Y98.446 E9.01750
G1 X83.436 Y98.586 E9.09190
G1 X82.236 Y98.766 E9.21837
G1 X81.556 Y98.836 E9.28961
G1 X80.326 Y98.896 E9.41796
G1 X79.666 Y98.896 E9.48675
G1 X78.426 Y98.836 E9.61613
G1 X77.736 Y98.766 E9.68842
G1 X76.546 Y98.586 E9.81385
G1 X75.856 Y98.446 E9.88723
G1 X74.696 Y98.146 E10.01211
G1 X74.036 Y97.936 E10.08429
G1 X72.926 Y97.526 E10.20762
G1 X72.376 Y97.296 E10.26975
G1 X71.316 Y96.796 E10.39190
G1 X70.646 Y96.436 E10.47118
G1 X69.656 Y95.826 E10.59237
G1 X69.176 Y95.496 E10.65308
G1 X68.246 Y94.806 E10.77377
G1 X67.726 Y94.376 E10.84410
G1 X66.866 Y93.596 E10.96510
G1 X66.396 Y93.126 E11.03438
G1 X65.616 Y92.266 E11.15539
G1 X65.186 Y91.746 E11.22571
G1 X64.496 Y90.816 E11.34640
G1 X64.146 Y90.306 E11.41087
G1 X63.536 Y89.306 E11.53295
G1 X63.226 Y88.736 E11.60058
G1 X62.716 Y87.686 E11.72224
G1 X62.436 Y87.016 E11.79792
G1 X62.036 Y85.906 E11.92089
G1 X61.846 Y85.296 E11.98748
G1 X61.546 Y84.136 E12.11236
G1 X61.406 Y83.436 E12.18676
G1 X61.226 Y82.236 E12.31322
G1 X61.156 Y81.556 E12.38447
G1 X61.096 Y80.326 E12.51282
G1 X61.096 Y79.666 E12.58160
G1 X61.156 Y78.426 E12.71099
G1 X61.226 Y77.736 E12.78327
G1 X61.406 Y76.546 E12.90871
G1 X61.546 Y75.856 E12.98209
G1 X61.846 Y74.696 E13.10697
G1 X62.036 Y74.086 E13.17355
G1 X62.436 Y72.976 E13.29652
G1 X62.706 Y72.336 E13.36892
G1 X63.216 Y71.276 E13.49152
G1 X63.556 Y70.646 E13.56613
G1 X64.166 Y69.656 E13.68733
G1 X64.496 Y69.176 E13.74804
G1 X65.186 Y68.246 E13.86873
G1 X65.616 Y67.726 E13.93905
G1 X66.396 Y66.866 E14.06006
G1 X66.777 Y66.485 E14.11627
G1 F2220.000 E12.36627
G1 Z1.300 F15000.000
G92 E0
G1 X72.349 Y72.349
G1 Z0.300
G1 F2220.000 E1.75000
G1 X73.118 Y71.651 F240.000 E1.85828
G1 X73.951 Y71.028 E1.96669
G1 X74.844 Y70.486 E2.07549
G1 X75.789 Y70.031 E2.18479
G1 X76.782 Y69.667 E2.29500
G1 X77.818 Y69.401 E2.40660
G1 X78.891 Y69.237 E2.51972
G1 X80.000 Y69.181 E2.63540
G1 X81.108 Y69.237 E2.75100
G1 X82.182 Y69.401 E2.86422
G1 X83.218 Y69.667 E2.97580
G1 X84.211 Y70.031 E3.08602
G1 X85.156 Y70.486 E3.19532
G1 X86.049 Y71.028 E3.30415
G1 X86.882 Y71.651 E3.41261
G1 X87.650 Y72.349 E3.52078
G1 X88.349 Y73.118 E3.62909
G1 X88.972 Y73.951 E3.73751
G1 X89.514 Y74.844 E3.84636
G1 X89.970 Y75.789 E3.95568
G1 X90.333 Y76.782 E4.06591
G1 X90.599 Y77.818 E4.17738
G1 X90.763 Y78.892 E4.29065
G1 X90.819 Y80.000 E4.40624
G1 X90.763 Y81.109 E4.52193
G1 X90.599 Y82.182 E4.63510
G1 X90.333 Y83.219 E4.74666
G1 X89.970 Y84.211 E4.85678
G1 X89.514 Y85.156 E4.96612
G1 X88.972 Y86.049 E5.07501
G1 X88.349 Y86.882 E5.18347
G1 X87.651 Y87.651 E5.29167
G1 X86.882 Y88.349 E5.39987
G1 X86.049 Y88.972 E5.50833
G1 X85.156 Y89.514 E5.61722
G1 X84.211 Y89.970 E5.72656
G1 X83.219 Y90.333 E5.83667
G1 X82.182 Y90.599 E5.94823
G1 X81.108 Y90.763 E6.06151
G1 X80.000 Y90.819 E6.17710
G1 X78.891 Y90.763 E6.29279
G1 X77.818 Y90.599 E6.40596
G1 X76.781 Y90.333 E6.51752
G1 X75.789 Y89.970 E6.62764
G1 X74.844 Y89.514 E6.73698
G1 X73.951 Y88.972 E6.84583
G1 X73.118 Y88.349 E6.95425
G1 X72.349 Y87.650 E7.06256
G1 X71.651 Y86.882 E7.17073
G1 X71.028 Y86.049 E7.27919
G1 X70.486 Y85.156 E7.38802
G1 X70.031 Y84.211 E7.49732
G1 X69.667 Y83.218 E7.60754
G1 X69.401 Y82.182 E7.71913
G1 X69.237 Y81.109 E7.83225
G1 X69.181 Y80.000 E7.94793
G1 X69.237 Y78.892 E8.06353
G1 X69.401 Y77.819 E8.17674
G1 X69.667 Y76.783 E8.28824
G1 X70.031 Y75.788 E8.39857
G1 X70.486 Y74.844 E8.50784
G1 X71.028 Y73.951 E8.61665
G1 X71.651 Y73.118 E8.72506
G1 X72.265 Y72.442 E8.82027
G1 X71.723 Y71.796 F15000.000
G1 X72.586 Y71.006 F240.000 E8.94231
G1 X73.483 Y70.335 E9.05906
G1 X74.445 Y69.751 E9.17630
G1 X75.463 Y69.260 E9.29409
G1 X76.533 Y68.868 E9.41289
G1 X77.651 Y68.581 E9.53317
G1 X78.807 Y68.404 E9.65508
G1 X80.000 Y68.344 E9.77956
G1 X81.334 Y68.411 E9.91880
G1 X81.334 Y68.426 E9.92032
G1 X82.349 Y68.581 E10.02732
G1 X83.467 Y68.868 E10.14760
G1 X84.537 Y69.260 E10.26639
G1 X85.555 Y69.751 E10.38418
G1 X86.517 Y70.335 E10.50143
G1 X87.415 Y71.006 E10.61826
G1 X88.242 Y71.758 E10.73478
G1 X88.994 Y72.586 E10.85141
G1 X89.665 Y73.483 E10.96816
G1 X90.249 Y74.445 E11.08541
G1 X90.741 Y75.463 E11.20324
G1 X91.132 Y76.534 E11.32211
G1 X91.419 Y77.651 E11.44226
G1 X91.596 Y78.808 E11.56429
G1 X91.656 Y80.000 E11.68867
G1 X91.596 Y81.193 E11.81315
G1 X91.419 Y82.349 E11.93508
G1 X91.132 Y83.467 E12.05533
G1 X90.741 Y84.537 E12.17409
G1 X90.249 Y85.555 E12.29193
G1 X89.665 Y86.517 E12.40920
G1 X88.994 Y87.415 E12.52602
G1 X88.242 Y88.242 E12.64256
G1 X87.415 Y88.994 E12.75910
G1 X86.517 Y89.665 E12.87592
G1 X85.555 Y90.249 E12.99318
G1 X84.537 Y90.741 E13.11102
G1 X83.467 Y91.132 E13.22978
G1 X82.349 Y91.419 E13.35003
G1 X81.192 Y91.596 E13.47206
G1 X80.000 Y91.656 E13.59644
G1 X78.807 Y91.596 E13.72092
G1 X77.651 Y91.419 E13.84285
G1 X76.533 Y91.132 E13.96311
G1 X75.463 Y90.741 E14.08187
G1 X74.445 Y90.249 E14.19970
G1 X73.483 Y89.665 E14.31696
G1 X72.586 Y88.994 E14.43371
G1 X71.758 Y88.242 E14.55034
G1 X71.006 Y87.415 E14.66686
G1 X70.335 Y86.517 E14.78368
G1 X69.751 Y85.555 E14.90093
G1 X69.260 Y84.537 E15.01873
G1 X68.868 Y83.467 E15.13752
G1 X68.581 Y82.349 E15.25780
G1 X68.404 Y81.193 E15.37971
G1 X68.344 Y80.000 E15.50419
G1 X68.411 Y78.666 E15.64344
G1 X68.426 Y78.666 E15.64496
G1 X68.581 Y77.651 E15.75195
G1 X68.868 Y76.534 E15.87213
G1 X69.260 Y75.463 E15.99103
G1 X69.751 Y74.445 E16.10881
G1 X70.335 Y73.483 E16.22605
G1 X71.006 Y72.586 E16.34280
G1 X71.638 Y71.889 E16.44091
G1 X72.527 Y72.023 F15000.000
G1 F2220.000 E14.69091
G1 Z1.300 F15000.000
G92 E0
G1 X69.332 Y69.295
G1 X74.149 Y66.062
G1 X79.788 Y64.926
G1 X80.212 Y64.926
G1 X85.853 Y66.063
G1 X90.704 Y69.332
G1 X93.939 Y74.149
G1 X89.045 Y75.265
G1 Z0.300
G1 F2220.000 E1.75000
G1 X84.736 Y70.956 F384.000 E2.39403
G1 X82.755 Y70.174 E2.61901
G1 X89.827 Y77.245 E3.67588
G1 X90.128 Y78.745 E3.83749
G1 X81.255 Y69.872 E5.16354
G1 X79.974 Y69.789 E5.29925
G1 X90.211 Y80.026 E6.82923
G1 X90.143 Y81.156 E6.94890
G1 X78.844 Y69.857 E8.63768
G1 X77.815 Y70.027 E8.74781
G1 X89.973 Y82.185 E10.56486
G1 X89.721 Y83.130 E10.66830
G1 X76.870 Y70.280 E12.58885
G1 X75.996 Y70.603 E12.68741
G1 X89.397 Y84.005 E14.69031
G1 X89.007 Y84.813 E14.78516
G1 X75.187 Y70.993 E16.85065
G1 X74.437 Y71.442 E16.94298
G1 X88.558 Y85.563 E19.05346
G1 X88.058 Y86.260 E19.14421
G1 X73.740 Y71.943 E21.28406
G1 X73.092 Y72.493 E21.37389
G1 X87.507 Y86.908 E23.52827
G1 X86.908 Y87.507 E23.61781
G1 X72.493 Y73.092 E25.77219
G1 X71.943 Y73.740 E25.86203
G1 X86.260 Y88.058 E28.00188
G1 X85.563 Y88.558 E28.09262
G1 X71.442 Y74.437 E30.20311
G1 X70.993 Y75.187 E30.29543
G1 X84.813 Y89.007 E32.36093
G1 X84.005 Y89.397 E32.45578
G1 X70.603 Y75.996 E34.45868
G1 X70.280 Y76.871 E34.55725
G1 X83.130 Y89.721 E36.47777
G1 X82.185 Y89.973 E36.58122
G1 X70.027 Y77.815 E38.39826
G1 X69.857 Y78.844 E38.50840
G1 X81.156 Y90.143 E40.19715
G1 X80.026 Y90.211 E40.31681
G1 X69.789 Y79.974 E41.84680
G1 X69.872 Y81.255 E41.98249
G1 X78.745 Y90.128 E43.30858
G1 X77.246 Y89.827 E43.47018
G1 X70.174 Y82.755 E44.52710
G1 X70.956 Y84.736 E44.75208
G1 X75.265 Y89.045 E45.39612
M104 S185 ; set temperature
G1 F2220.000 E43.64612
G1 Z1.550 F15000.000
G92 E0
G1 X74.469 Y90.206
G1 Z0.550
G1 F2220.000 E1.75000
G1 X73.511 Y89.624 F1200.000 E1.78630
G1 X72.618 Y88.956 E1.82245
G1 X71.793 Y88.207 E1.85856
G1 X71.044 Y87.383 E1.89463
G1 X70.376 Y86.489 E1.93080
G1 X69.795 Y85.532 E1.96710
G1 X69.306 Y84.518 E2.00357
G1 X68.916 Y83.452 E2.04035
G1 X68.630 Y82.339 E2.07758
G1 X68.454 Y81.188 E2.11533
G1 X68.394 Y80.000 E2.15387
G1 X68.454 Y78.813 E2.19238
G1 X68.630 Y77.661 E2.23015
G1 X68.916 Y76.549 E2.26736
G1 X69.306 Y75.482 E2.30417
G1 X69.795 Y74.468 E2.34063
G1 X70.376 Y73.511 E2.37693
G1 X71.044 Y72.618 E2.41307
G1 X71.793 Y71.793 E2.44918
G1 X72.618 Y71.044 E2.48528
G1 X73.511 Y70.376 E2.52143
G1 X74.548 Y69.746 E2.56075
G1 X75.482 Y69.306 E2.59421
G1 X76.548 Y68.916 E2.63098
G1 X77.661 Y68.630 E2.66822
G1 X78.812 Y68.454 E2.70596
G1 X80.000 Y68.394 E2.74451
G1 X81.187 Y68.454 E2.78302
G1 X82.339 Y68.630 E2.82079
G1 X83.452 Y68.916 E2.85803
G1 X84.518 Y69.306 E2.89480
G1 X85.532 Y69.795 E2.93127
G1 X86.489 Y70.376 E2.96757
G1 X87.383 Y71.044 E3.00374
G1 X88.207 Y71.793 E3.03981
G1 X88.956 Y72.618 E3.07592
G1 X89.624 Y73.511 E3.11207
G1 X90.206 Y74.469 E3.14837
G1 X90.695 Y75.482 E3.18485
G1 X91.085 Y76.549 E3.22165
G1 X91.370 Y77.661 E3.25885
G1 X91.546 Y78.813 E3.29663
G1 X91.606 Y80.000 E3.33514
G1 X91.546 Y81.188 E3.37368
G1 X91.370 Y82.339 E3.41143
G1 X91.085 Y83.452 E3.44866
G1 X90.695 Y84.518 E3.48542
G1 X90.206 Y85.531 E3.52190
G1 X89.624 Y86.489 E3.55821
G1 X88.956 Y87.383 E3.59438
G1 X88.207 Y88.207 E3.63046
G1 X87.383 Y88.956 E3.66654
G1 X86.489 Y89.624 E3.70270
G1 X85.531 Y90.206 E3.73901
G1 X84.518 Y90.695 E3.77549
G1 X83.452 Y91.085 E3.81226
G1 X82.339 Y91.370 E3.84949
G1 X81.187 Y91.546 E3.88727
G1 X80.000 Y91.606 E3.92578
G1 X78.812 Y91.546 E3.96432
G1 X77.661 Y91.370 E4.00207
G1 X76.548 Y91.085 E4.03930
G1 X75.482 Y90.695 E4.07606
G1 X74.511 Y90.226 E4.11103
G1 X74.320 Y90.480 F15000.000
G1 X73.336 Y89.883 F1200.000 E4.14830
G1 X72.419 Y89.197 E4.18542
G1 X71.572 Y88.428 E4.22249
G1 X70.803 Y87.582 E4.25954
G1 X70.117 Y86.664 E4.29667
G1 X69.520 Y85.681 E4.33395
G1 X69.019 Y84.639 E4.37140
G1 X68.618 Y83.545 E4.40917
G1 X68.324 Y82.402 E4.44742
G1 X68.143 Y81.219 E4.48618
G1 X68.082 Y80.000 E4.52574
G1 X68.143 Y78.782 E4.56527
G1 X68.324 Y77.598 E4.60407
G1 X68.618 Y76.456 E4.64228
G1 X69.019 Y75.361 E4.68009
G1 X69.520 Y74.319 E4.71754
G1 X70.117 Y73.336 E4.75481
G1 X70.803 Y72.419 E4.79193
G1 X71.572 Y71.572 E4.82900
G1 X72.419 Y70.803 E4.86607
G1 X73.336 Y70.117 E4.90318
G1 X74.319 Y69.520 E4.94046
G1 X75.361 Y69.019 E4.97791
G1 X76.455 Y68.618 E5.01568
G1 X77.598 Y68.324 E5.05393
G1 X78.781 Y68.143 E5.09269
G1 X80.000 Y68.082 E5.13225
G1 X81.218 Y68.143 E5.17178
G1 X82.402 Y68.324 E5.21057
G1 X83.545 Y68.618 E5.24882
G1 X84.639 Y69.019 E5.28659
G1 X85.681 Y69.520 E5.32404
G1 X86.664 Y70.117 E5.36132
G1 X87.582 Y70.803 E5.39846
G1 X88.428 Y71.572 E5.43550
G1 X89.197 Y72.419 E5.47258
G1 X89.883 Y73.336 E5.50969
G1 X90.480 Y74.320 E5.54697
G1 X90.982 Y75.361 E5.58443
G1 X91.383 Y76.456 E5.62223
G1 X91.676 Y77.598 E5.66044
G1 X91.857 Y78.782 E5.69924
G1 X91.918 Y80.000 E5.73876
G1 X91.857 Y81.219 E5.77833
G1 X91.676 Y82.402 E5.81709
G1 X91.383 Y83.545 E5.85533
G1 X90.982 Y84.639 E5.89310
G1 X90.480 Y85.680 E5.93056
G1 X89.883 Y86.664 E5.96784
G1 X89.197 Y87.582 E6.00498
G1 X88.428 Y88.428 E6.04203
G1 X87.582 Y89.197 E6.07907
G1 X86.664 Y89.883 E6.11621
G1 X85.680 Y90.480 E6.15349
G1 X84.639 Y90.982 E6.19096
G1 X83.545 Y91.383 E6.22873
G1 X82.402 Y91.676 E6.26696
G1 X81.218 Y91.857 E6.30576
G1 X80.000 Y91.918 E6.34529
G1 X78.781 Y91.857 E6.38485
G1 X77.598 Y91.676 E6.42361
G1 X76.455 Y91.383 E6.46185
G1 X75.361 Y90.982 E6.49962
G1 X74.362 Y90.500 E6.53557
G1 X74.316 Y90.168 F15000.000
G1 F2220.000 E4.78557
G1 Z1.550 F15000.000
G92 E0
G1 X75.497 Y90.656
G1 X90.656 Y84.503
G1 X89.484 Y86.284
G1 Z0.550
G1 F2220.000 E1.75000
G1 X86.284 Y89.484 F1920.000 E1.89755
G1 X85.219 Y90.106 E1.93772
G1 X90.106 Y85.219 E2.16298
G1 X90.507 Y84.374 E2.19346
G1 X84.374 Y90.507 E2.47614
G1 X83.675 Y90.763 E2.50043
G1 X90.763 Y83.675 E2.82717
G1 X90.958 Y83.036 E2.84896
G1 X83.036 Y90.958 E3.21419
G1 X82.439 Y91.111 E3.23426
G1 X91.111 Y82.439 E3.63404
G1 X91.209 Y81.898 E3.65197
G1 X81.898 Y91.209 E4.08120
G1 X81.374 Y91.289 E4.09845
G1 X91.289 Y81.374 E4.55550
G1 X91.335 Y80.885 E4.57152
G1 X80.885 Y91.335 E5.05326
G1 X80.418 Y91.359 E5.06850
G1 X91.359 Y80.418 E5.57284
G1 X91.377 Y79.956 E5.58792
G1 X79.956 Y91.377 E6.11444
G1 X79.533 Y91.356 E6.12823
G1 X91.356 Y79.533 E6.67323
G1 X91.335 Y79.111 E6.68702
G1 X79.111 Y91.335 E7.25051
G1 X78.702 Y91.301 E7.26390
G1 X91.301 Y78.702 E7.84468
G1 X91.242 Y78.317 E7.85737
G1 X78.317 Y91.242 E8.45318
G1 X77.932 Y91.183 E8.46587
G1 X91.183 Y77.932 E9.07671
G1 X91.111 Y77.561 E9.08905
G1 X77.560 Y91.111 E9.71371
G1 X77.208 Y91.021 E9.72559
G1 X91.021 Y77.208 E10.36235
G1 X90.930 Y76.855 E10.37422
G1 X76.855 Y90.930 E11.02307
G1 X76.511 Y90.831 E11.03474
G1 X90.830 Y76.511 E11.69485
G1 X90.712 Y76.186 E11.70612
G1 X76.186 Y90.712 E12.37572
G1 X75.861 Y90.593 E12.38699
G1 X90.593 Y75.861 E13.06608
G1 X90.471 Y75.539 E13.07730
G1 X75.539 Y90.471 E13.76564
G1 X75.240 Y90.327 E13.77646
G1 X90.327 Y75.240 E14.47194
G1 X90.183 Y74.941 E14.48276
G1 X74.941 Y90.183 E15.18537
G1 X74.642 Y90.038 E15.19620
G1 X90.038 Y74.642 E15.90595
G1 X89.876 Y74.361 E15.91653
G1 X74.361 Y89.876 E16.63174
G1 X74.085 Y89.708 E16.64226
G1 X89.708 Y74.085 E17.36246
G1 X89.541 Y73.809 E17.37299
G1 X73.809 Y89.541 E18.09818
G1 X73.541 Y89.365 E18.10862
G1 X89.365 Y73.541 E18.83803
G1 X89.175 Y73.288 E18.84836
G1 X73.288 Y89.175 E19.58072
G1 X73.034 Y88.985 E19.59105
G1 X88.985 Y73.034 E20.32635
G1 X88.795 Y72.780 E20.33668
G1 X72.780 Y88.795 E21.07493
G1 X72.546 Y88.586 E21.08516
G1 X88.586 Y72.546 E21.82454
G1 X88.375 Y72.314 E21.83478
G1 X72.314 Y88.375 E22.57514
G1 X72.081 Y88.164 E22.58538
G1 X88.164 Y72.081 E23.32673
