; generated by Slic3r 0.9.10b on 2014-02-27 at 18:40:55

; H-PLA-03-025-1

; layer_height = 0.25
; perimeters = 2
; top_solid_layers = 4
; bottom_solid_layers = 3
; fill_density = 0.2
; perimeter_speed = 20
; infill_speed = 32
; travel_speed = 250
; nozzle_diameter = 0.3
; filament_diameter = 1.75
; extrusion_multiplier = 1
; perimeters extrusion width = 0.32mm
; infill extrusion width = 0.32mm
; solid infill extrusion width = 0.32mm
; top infill extrusion width = 0.32mm
; first layer extrusion width = 0.90mm

G21 ; set units to millimeters
M107
M190 S80 ; wait for bed temperature to be reached
M104 S210 ; set temperature
G28
G1 Z0.25 F200
G1 X15 Y20 F12000
M109 S210 ; wait for temperature to be reached
G90 ; use absolute coordinates
G92 E0
M82 ; use absolute distances for extrusion
G1 F2220.000 E-1.75000
G1 Z1.300 F15000.000
G92 E0
G1 X51.792 Y51.322
G1 Z0.300
G1 F2220.000 E1.75000
G1 X52.652 Y50.542 F240.000 E1.87101
G1 X53.172 Y50.112 E1.94133
G1 X54.102 Y49.422 E2.06202
G1 X54.582 Y49.092 E2.12273
G1 X55.572 Y48.482 E2.24393
G1 X56.202 Y48.142 E2.31854
G1 X57.262 Y47.632 E2.44114
G1 X57.902 Y47.362 E2.51353
G1 X59.012 Y46.962 E2.63650
G1 X59.622 Y46.772 E2.70309
G1 X60.782 Y46.472 E2.82797
G1 X61.472 Y46.332 E2.90135
G1 X62.662 Y46.152 E3.02679
G1 X63.352 Y46.082 E3.09907
G1 X64.922 Y46.012 E3.26286
G1 X95.072 Y46.012 E6.40519
G1 X96.632 Y46.082 E6.56794
G1 X97.312 Y46.152 E6.63918
G1 X98.512 Y46.332 E6.76565
G1 X99.212 Y46.472 E6.84005
G1 X100.372 Y46.772 E6.96493
G1 X100.982 Y46.962 E7.03152
G1 X102.092 Y47.362 E7.15449
G1 X102.762 Y47.642 E7.23017
G1 X103.812 Y48.152 E7.35183
G1 X104.382 Y48.462 E7.41945
G1 X105.382 Y49.072 E7.54154
G1 X105.892 Y49.422 E7.60600
G1 X106.822 Y50.112 E7.72670
G1 X107.372 Y50.562 E7.80076
G1 X108.222 Y51.342 E7.92100
G1 X108.662 Y51.792 E7.98659
G1 X109.442 Y52.652 E8.10760
G1 X109.842 Y53.132 E8.17272
G1 X110.542 Y54.062 E8.29403
G1 X110.932 Y54.632 E8.36602
G1 X111.532 Y55.622 E8.48667
G1 X111.842 Y56.202 E8.55521
G1 X112.352 Y57.262 E8.67781
G1 X112.602 Y57.852 E8.74459
G1 X113.012 Y58.962 E8.86792
G1 X113.222 Y59.622 E8.94010
G1 X113.522 Y60.782 E9.06498
G1 X113.662 Y61.472 E9.13836
G1 X113.842 Y62.662 E9.26380
G1 X113.912 Y63.352 E9.33608
G1 X113.982 Y64.922 E9.49987
G1 X113.982 Y95.072 E12.64220
G1 X113.912 Y96.632 E12.80495
G1 X113.842 Y97.312 E12.87619
G1 X113.662 Y98.512 E13.00266
G1 X113.522 Y99.212 E13.07706
G1 X113.222 Y100.372 E13.20194
G1 X113.012 Y101.032 E13.27412
G1 X112.602 Y102.142 E13.39745
G1 X112.342 Y102.762 E13.46752
G1 X111.832 Y103.812 E13.58918
G1 X111.542 Y104.342 E13.65215
G1 X110.942 Y105.342 E13.77369
G1 X110.542 Y105.932 E13.84798
G1 X109.842 Y106.862 E13.96930
G1 X109.422 Y107.372 E14.03816
G1 X108.642 Y108.222 E14.15839
G1 X108.222 Y108.642 E14.22030
G1 X107.372 Y109.422 E14.34054
G1 X106.862 Y109.842 E14.40939
G1 X105.932 Y110.542 E14.53071
G1 X105.342 Y110.942 E14.60500
G1 X104.342 Y111.542 E14.72655
G1 X103.812 Y111.832 E14.78951
G1 X102.762 Y112.342 E14.91117
G1 X102.142 Y112.602 E14.98124
G1 X101.032 Y113.012 E15.10457
G1 X100.372 Y113.222 E15.17676
G1 X99.212 Y113.522 E15.30163
G1 X98.512 Y113.662 E15.37603
G1 X97.312 Y113.842 E15.50250
G1 X96.632 Y113.912 E15.57375
G1 X95.072 Y113.982 E15.73650
G1 X64.922 Y113.982 E18.87882
G1 X63.352 Y113.912 E19.04262
G1 X62.662 Y113.842 E19.11490
G1 X61.472 Y113.662 E19.24033
G1 X60.782 Y113.522 E19.31371
G1 X59.622 Y113.222 E19.43859
G1 X58.962 Y113.012 E19.51078
G1 X57.852 Y112.602 E19.63410
G1 X57.262 Y112.352 E19.70089
G1 X56.202 Y111.842 E19.82349
G1 X55.622 Y111.532 E19.89203
G1 X54.632 Y110.932 E20.01268
G1 X54.062 Y110.542 E20.08466
G1 X53.132 Y109.842 E20.20598
G1 X52.652 Y109.442 E20.27110
G1 X51.792 Y108.662 E20.39210
G1 X51.342 Y108.222 E20.45770
G1 X50.562 Y107.372 E20.57793
G1 X50.112 Y106.822 E20.65200
G1 X49.422 Y105.892 E20.77269
G1 X49.072 Y105.382 E20.83716
G1 X48.462 Y104.382 E20.95924
G1 X48.152 Y103.812 E21.02687
G1 X47.642 Y102.762 E21.14853
G1 X47.362 Y102.092 E21.22421
G1 X46.962 Y100.982 E21.34718
G1 X46.772 Y100.372 E21.41377
G1 X46.472 Y99.212 E21.53864
G1 X46.332 Y98.512 E21.61304
G1 X46.152 Y97.312 E21.73951
G1 X46.082 Y96.632 E21.81076
G1 X46.012 Y95.072 E21.97351
G1 X46.012 Y64.922 E25.11583
G1 X46.082 Y63.352 E25.27963
G1 X46.152 Y62.662 E25.35191
G1 X46.332 Y61.472 E25.47735
G1 X46.472 Y60.782 E25.55072
G1 X46.772 Y59.622 E25.67560
G1 X46.962 Y59.012 E25.74219
G1 X47.362 Y57.902 E25.86516
G1 X47.632 Y57.262 E25.93756
G1 X48.142 Y56.202 E26.06015
G1 X48.482 Y55.572 E26.13477
G1 X49.092 Y54.582 E26.25596
G1 X49.422 Y54.102 E26.31667
G1 X50.112 Y53.172 E26.43736
G1 X50.542 Y52.652 E26.50769
G1 X51.322 Y51.792 E26.62869
G1 X51.703 Y51.411 E26.68491
G1 F2220.000 E24.93491
G1 Z1.300 F15000.000
G92 E0
G1 X57.275 Y57.275
G1 Z0.300
G1 F2220.000 E1.75000
G1 X58.044 Y56.577 F240.000 E1.85828
G1 X58.877 Y55.954 E1.96669
G1 X59.770 Y55.412 E2.07549
G1 X60.715 Y54.957 E2.18479
G1 X61.708 Y54.593 E2.29500
G1 X62.744 Y54.327 E2.40660
G1 X63.817 Y54.163 E2.51972
G1 X64.926 Y54.107 E2.63540
G1 X66.034 Y54.163 E2.75100
G1 X67.108 Y54.327 E2.86422
G1 X68.144 Y54.593 E2.97580
G1 X69.137 Y54.957 E3.08602
G1 X70.082 Y55.412 E3.19532
G1 X70.975 Y55.954 E3.30415
G1 X71.808 Y56.577 E3.41261
G1 X72.576 Y57.275 E3.52078
G1 X73.275 Y58.044 E3.62909
G1 X73.898 Y58.877 E3.73751
G1 X74.440 Y59.770 E3.84636
G1 X74.896 Y60.715 E3.95568
G1 X75.259 Y61.708 E4.06591
G1 X75.525 Y62.744 E4.17738
G1 X75.689 Y63.818 E4.29065
G1 X75.745 Y64.926 E4.40624
G1 X75.689 Y66.035 E4.52193
G1 X75.525 Y67.108 E4.63510
G1 X75.259 Y68.145 E4.74666
G1 X74.896 Y69.137 E4.85678
G1 X74.440 Y70.082 E4.96612
G1 X73.898 Y70.975 E5.07501
G1 X73.275 Y71.808 E5.18347
G1 X72.577 Y72.577 E5.29167
G1 X71.808 Y73.275 E5.39987
G1 X70.975 Y73.898 E5.50833
G1 X70.082 Y74.440 E5.61722
G1 X69.137 Y74.896 E5.72656
G1 X68.145 Y75.259 E5.83667
G1 X67.108 Y75.525 E5.94823
G1 X66.034 Y75.689 E6.06151
G1 X64.926 Y75.745 E6.17710
G1 X63.817 Y75.689 E6.29279
G1 X62.744 Y75.525 E6.40596
G1 X61.707 Y75.259 E6.51752
G1 X60.715 Y74.896 E6.62764
G1 X59.770 Y74.440 E6.73698
G1 X58.877 Y73.898 E6.84583
G1 X58.044 Y73.275 E6.95425
G1 X57.275 Y72.576 E7.06256
G1 X56.577 Y71.808 E7.17073
G1 X55.954 Y70.975 E7.27919
G1 X55.412 Y70.082 E7.38802
G1 X54.957 Y69.137 E7.49732
G1 X54.593 Y68.144 E7.60754
G1 X54.327 Y67.108 E7.71913
G1 X54.163 Y66.035 E7.83225
G1 X54.107 Y64.926 E7.94793
G1 X54.163 Y63.818 E8.06353
G1 X54.327 Y62.745 E8.17674
G1 X54.593 Y61.709 E8.28824
G1 X54.957 Y60.714 E8.39857
G1 X55.412 Y59.770 E8.50784
G1 X55.954 Y58.877 E8.61665
G1 X56.577 Y58.044 E8.72506
G1 X57.191 Y57.368 E8.82027
G1 X56.649 Y56.722 F15000.000
G1 X57.512 Y55.932 F240.000 E8.94231
G1 X58.409 Y55.261 E9.05906
G1 X59.371 Y54.677 E9.17630
G1 X60.389 Y54.186 E9.29409
G1 X61.459 Y53.794 E9.41289
G1 X62.577 Y53.507 E9.53317
G1 X63.733 Y53.330 E9.65508
G1 X64.926 Y53.270 E9.77956
G1 X66.260 Y53.337 E9.91880
G1 X66.260 Y53.352 E9.92032
G1 X67.275 Y53.507 E10.02732
G1 X68.393 Y53.794 E10.14760
G1 X69.463 Y54.186 E10.26639
G1 X70.481 Y54.677 E10.38418
G1 X71.443 Y55.261 E10.50143
G1 X72.341 Y55.932 E10.61826
G1 X73.168 Y56.684 E10.73478
G1 X73.920 Y57.512 E10.85141
G1 X74.591 Y58.409 E10.96816
G1 X75.175 Y59.371 E11.08541
G1 X75.667 Y60.389 E11.20324
G1 X76.058 Y61.460 E11.32211
G1 X76.345 Y62.577 E11.44226
G1 X76.522 Y63.734 E11.56429
G1 X76.582 Y64.926 E11.68867
G1 X76.522 Y66.119 E11.81315
G1 X76.345 Y67.275 E11.93508
G1 X76.058 Y68.393 E12.05533
G1 X75.667 Y69.463 E12.17409
G1 X75.175 Y70.481 E12.29193
G1 X74.591 Y71.443 E12.40920
G1 X73.920 Y72.341 E12.52602
G1 X73.168 Y73.168 E12.64256
G1 X72.341 Y73.920 E12.75910
G1 X71.443 Y74.591 E12.87592
G1 X70.481 Y75.175 E12.99318
G1 X69.463 Y75.667 E13.11102
G1 X68.393 Y76.058 E13.22978
G1 X67.275 Y76.345 E13.35003
G1 X66.118 Y76.522 E13.47206
G1 X64.926 Y76.582 E13.59644
G1 X63.733 Y76.522 E13.72092
G1 X62.577 Y76.345 E13.84285
G1 X61.459 Y76.058 E13.96311
G1 X60.389 Y75.667 E14.08187
G1 X59.371 Y75.175 E14.19970
G1 X58.409 Y74.591 E14.31696
G1 X57.512 Y73.920 E14.43371
G1 X56.684 Y73.168 E14.55034
G1 X55.932 Y72.341 E14.66686
G1 X55.261 Y71.443 E14.78368
G1 X54.677 Y70.481 E14.90093
G1 X54.186 Y69.463 E15.01873
G1 X53.794 Y68.393 E15.13752
G1 X53.507 Y67.275 E15.25780
G1 X53.330 Y66.119 E15.37971
G1 X53.270 Y64.926 E15.50419
G1 X53.337 Y63.592 E15.64344
G1 X53.352 Y63.592 E15.64496
G1 X53.507 Y62.577 E15.75195
G1 X53.794 Y61.460 E15.87213
G1 X54.186 Y60.389 E15.99103
G1 X54.677 Y59.371 E16.10881
G1 X55.261 Y58.409 E16.22605
G1 X55.932 Y57.512 E16.34280
G1 X56.564 Y56.815 E16.44091
G1 X57.453 Y56.949 F15000.000
G1 F2220.000 E14.69091
G1 Z1.300 F15000.000
G92 E0
G1 X54.258 Y54.221
G1 X59.075 Y50.988
G1 X64.714 Y49.852
G1 X65.138 Y49.852
G1 X70.779 Y50.989
G1 X75.630 Y54.258
G1 X78.865 Y59.075
G1 X73.971 Y60.191
G1 Z0.300
G1 F2220.000 E1.75000
G1 X69.662 Y55.882 F384.000 E2.39403
G1 X67.681 Y55.100 E2.61901
G1 X74.753 Y62.171 E3.67588
G1 X75.054 Y63.671 E3.83749
G1 X66.181 Y54.798 E5.16354
G1 X64.900 Y54.715 E5.29925
G1 X75.137 Y64.952 E6.82923
G1 X75.069 Y66.082 E6.94890
G1 X63.770 Y54.783 E8.63768
G1 X62.741 Y54.953 E8.74781
G1 X74.899 Y67.111 E10.56486
G1 X74.647 Y68.056 E10.66830
G1 X61.796 Y55.206 E12.58885
G1 X60.922 Y55.529 E12.68741
G1 X74.323 Y68.931 E14.69031
G1 X73.933 Y69.739 E14.78516
G1 X60.113 Y55.919 E16.85065
G1 X59.363 Y56.368 E16.94298
G1 X73.484 Y70.489 E19.05346
G1 X72.984 Y71.186 E19.14421
G1 X58.666 Y56.869 E21.28406
G1 X58.018 Y57.419 E21.37389
G1 X72.433 Y71.834 E23.52827
G1 X71.834 Y72.433 E23.61781
G1 X57.419 Y58.018 E25.77219
G1 X56.869 Y58.666 E25.86203
G1 X71.186 Y72.984 E28.00188
G1 X70.489 Y73.484 E28.09262
G1 X56.368 Y59.363 E30.20311
G1 X55.919 Y60.113 E30.29543
G1 X69.739 Y73.933 E32.36093
G1 X68.931 Y74.323 E32.45578
G1 X55.529 Y60.922 E34.45868
G1 X55.206 Y61.797 E34.55725
G1 X68.056 Y74.647 E36.47777
G1 X67.111 Y74.899 E36.58122
G1 X54.953 Y62.741 E38.39826
G1 X54.783 Y63.770 E38.50840
G1 X66.082 Y75.069 E40.19715
G1 X64.952 Y75.137 E40.31681
G1 X54.715 Y64.900 E41.84680
G1 X54.798 Y66.181 E41.98249
G1 X63.671 Y75.054 E43.30858
G1 X62.172 Y74.753 E43.47018
G1 X55.100 Y67.681 E44.52710
G1 X55.882 Y69.662 E44.75208
G1 X60.191 Y73.971 E45.39612
M104 S185 ; set temperature
G1 F2220.000 E43.64612
G1 Z1.550 F15000.000
G92 E0
G1 X59.395 Y75.132
G1 Z0.550
G1 F2220.000 E1.75000
G1 X58.437 Y74.550 F1200.000 E1.78630
G1 X57.544 Y73.882 E1.82245
G1 X56.719 Y73.133 E1.85856
G1 X55.970 Y72.309 E1.89463
G1 X55.302 Y71.415 E1.93080
G1 X54.721 Y70.458 E1.96710
G1 X54.232 Y69.444 E2.00357
G1 X53.842 Y68.378 E2.04035
G1 X53.556 Y67.265 E2.07758
G1 X53.380 Y66.114 E2.11533
G1 X53.320 Y64.926 E2.15387
G1 X53.380 Y63.739 E2.19238
G1 X53.556 Y62.587 E2.23015
G1 X53.842 Y61.475 E2.26736
G1 X54.232 Y60.408 E2.30417
G1 X54.721 Y59.394 E2.34063
G1 X55.302 Y58.437 E2.37693
G1 X55.970 Y57.544 E2.41307
G1 X56.719 Y56.719 E2.44918
G1 X57.544 Y55.970 E2.48528
G1 X58.437 Y55.302 E2.52143
G1 X59.474 Y54.672 E2.56075
G1 X60.408 Y54.232 E2.59421
G1 X61.474 Y53.842 E2.63098
G1 X62.587 Y53.556 E2.66822
G1 X63.738 Y53.380 E2.70596
G1 X64.926 Y53.320 E2.74451
G1 X66.113 Y53.380 E2.78302
G1 X67.265 Y53.556 E2.82079
G1 X68.378 Y53.842 E2.85803
G1 X69.444 Y54.232 E2.89480
G1 X70.458 Y54.721 E2.93127
G1 X71.415 Y55.302 E2.96757
G1 X72.309 Y55.970 E3.00374
G1 X73.133 Y56.719 E3.03981
G1 X73.882 Y57.544 E3.07592
G1 X74.550 Y58.437 E3.11207
G1 X75.132 Y59.395 E3.14837
G1 X75.621 Y60.408 E3.18485
G1 X76.011 Y61.475 E3.22165
G1 X76.296 Y62.587 E3.25885
G1 X76.472 Y63.739 E3.29663
G1 X76.532 Y64.926 E3.33514
G1 X76.472 Y66.114 E3.37368
G1 X76.296 Y67.265 E3.41143
G1 X76.011 Y68.378 E3.44866
G1 X75.621 Y69.444 E3.48542
G1 X75.132 Y70.457 E3.52190
G1 X74.550 Y71.415 E3.55821
G1 X73.882 Y72.309 E3.59438
G1 X73.133 Y73.133 E3.63046
G1 X72.309 Y73.882 E3.66654
G1 X71.415 Y74.550 E3.70270
G1 X70.457 Y75.132 E3.73901
G1 X69.444 Y75.621 E3.77549
G1 X68.378 Y76.011 E3.81226
G1 X67.265 Y76.296 E3.84949
G1 X66.113 Y76.472 E3.88727
G1 X64.926 Y76.532 E3.92578
G1 X63.738 Y76.472 E3.96432
G1 X62.587 Y76.296 E4.00207
G1 X61.474 Y76.011 E4.03930
G1 X60.408 Y75.621 E4.07606
G1 X59.437 Y75.152 E4.11103
G1 X59.246 Y75.406 F15000.000
G1 X58.262 Y74.809 F1200.000 E4.14830
G1 X57.345 Y74.123 E4.18542
G1 X56.498 Y73.354 E4.22249
G1 X55.729 Y72.508 E4.25954
G1 X55.043 Y71.590 E4.29667
G1 X54.446 Y70.607 E4.33395
G1 X53.945 Y69.565 E4.37140
G1 X53.544 Y68.471 E4.40917
G1 X53.250 Y67.328 E4.44742
G1 X53.069 Y66.145 E4.48618
G1 X53.008 Y64.926 E4.52574
G1 X53.069 Y63.708 E4.56527
G1 X53.250 Y62.524 E4.60407
G1 X53.544 Y61.382 E4.64228
G1 X53.945 Y60.287 E4.68009
G1 X54.446 Y59.245 E4.71754
G1 X55.043 Y58.262 E4.75481
G1 X55.729 Y57.345 E4.79193
G1 X56.498 Y56.498 E4.82900
G1 X57.345 Y55.729 E4.86607
G1 X58.262 Y55.043 E4.90318
G1 X59.245 Y54.446 E4.94046
G1 X60.287 Y53.945 E4.97791
G1 X61.381 Y53.544 E5.01568
G1 X62.524 Y53.250 E5.05393
G1 X63.707 Y53.069 E5.09269
G1 X64.926 Y53.008 E5.13225
G1 X66.144 Y53.069 E5.17178
G1 X67.328 Y53.250 E5.21057
G1 X68.471 Y53.544 E5.24882
G1 X69.565 Y53.945 E5.28659
G1 X70.607 Y54.446 E5.32404
G1 X71.590 Y55.043 E5.36132
G1 X72.508 Y55.729 E5.39846
G1 X73.354 Y56.498 E5.43550
G1 X74.123 Y57.345 E5.47258
G1 X74.809 Y58.262 E5.50969
G1 X75.406 Y59.246 E5.54697
G1 X75.908 Y60.287 E5.58443
G1 X76.309 Y61.382 E5.62223
G1 X76.602 Y62.524 E5.66044
G1 X76.783 Y63.708 E5.69924
G1 X76.844 Y64.926 E5.73876
G1 X76.783 Y66.145 E5.77833
G1 X76.602 Y67.328 E5.81709
G1 X76.309 Y68.471 E5.85533
G1 X75.908 Y69.565 E5.89310
G1 X75.406 Y70.606 E5.93056
G1 X74.809 Y71.590 E5.96784
G1 X74.123 Y72.508 E6.00498
G1 X73.354 Y73.354 E6.04203
G1 X72.508 Y74.123 E6.07907
G1 X71.590 Y74.809 E6.11621
G1 X70.606 Y75.406 E6.15349
G1 X69.565 Y75.908 E6.19096
G1 X68.471 Y76.309 E6.22873
G1 X67.328 Y76.602 E6.26696
G1 X66.144 Y76.783 E6.30576
G1 X64.926 Y76.844 E6.34529
G1 X63.707 Y76.783 E6.38485
G1 X62.524 Y76.602 E6.42361
G1 X61.381 Y76.309 E6.46185
G1 X60.287 Y75.908 E6.49962
G1 X59.288 Y75.426 E6.53557
G1 X59.242 Y75.094 F15000.000
G1 F2220.000 E4.78557
G1 Z1.550 F15000.000
G92 E0
G1 X60.423 Y75.582
G1 X75.582 Y69.429
G1 X74.410 Y71.210
G1 Z0.550
G1 F2220.000 E1.75000
G1 X71.210 Y74.410 F1920.000 E1.89755
G1 X70.145 Y75.032 E1.93772
G1 X75.032 Y70.145 E2.16298
G1 X75.433 Y69.300 E2.19346
G1 X69.300 Y75.433 E2.47614
G1 X68.601 Y75.689 E2.50043
G1 X75.689 Y68.601 E2.82717
G1 X75.884 Y67.962 E2.84896
G1 X67.962 Y75.884 E3.21419
G1 X67.365 Y76.037 E3.23426
G1 X76.037 Y67.365 E3.63404
G1 X76.135 Y66.824 E3.65197
G1 X66.824 Y76.135 E4.08120
G1 X66.300 Y76.215 E4.09845
G1 X76.215 Y66.300 E4.55550
G1 X76.261 Y65.811 E4.57152
G1 X65.811 Y76.261 E5.05326
G1 X65.344 Y76.285 E5.06850
G1 X76.285 Y65.344 E5.57284
G1 X76.303 Y64.882 E5.58792
G1 X64.882 Y76.303 E6.11444
G1 X64.459 Y76.282 E6.12823
G1 X76.282 Y64.459 E6.67323
G1 X76.261 Y64.037 E6.68702
G1 X64.037 Y76.261 E7.25051
G1 X63.628 Y76.227 E7.26390
G1 X76.227 Y63.628 E7.84468
G1 X76.168 Y63.243 E7.85737
G1 X63.243 Y76.168 E8.45318
G1 X62.858 Y76.109 E8.46587
G1 X76.109 Y62.858 E9.07671
G1 X76.037 Y62.487 E9.08905
G1 X62.486 Y76.037 E9.71371
G1 X62.134 Y75.947 E9.72559
G1 X75.947 Y62.134 E10.36235
G1 X75.856 Y61.781 E10.37422
G1 X61.781 Y75.856 E11.02307
G1 X61.437 Y75.757 E11.03474
G1 X75.756 Y61.437 E11.69485
G1 X75.638 Y61.112 E11.70612
G1 X61.112 Y75.638 E12.37572
G1 X60.787 Y75.519 E12.38699
G1 X75.519 Y60.787 E13.06608
G1 X75.397 Y60.465 E13.07730
G1 X60.465 Y75.397 E13.76564
G1 X60.166 Y75.253 E13.77646
G1 X75.253 Y60.166 E14.47194
G1 X75.109 Y59.867 E14.48276
G1 X59.867 Y75.109 E15.18537
G1 X59.568 Y74.964 E15.19620
G1 X74.964 Y59.568 E15.90595
G1 X74.802 Y59.287 E15.91653
G1 X59.287 Y74.802 E16.63174
G1 X59.011 Y74.634 E16.64226
G1 X74.634 Y59.011 E17.36246
G1 X74.467 Y58.735 E17.37299
G1 X58.735 Y74.467 E18.09818
G1 X58.467 Y74.291 E18.10862
G1 X74.291 Y58.467 E18.83803
G1 X74.101 Y58.214 E18.84836
G1 X58.214 Y74.101 E19.58072
G1 X57.960 Y73.911 E19.59105
G1 X73.911 Y57.960 E20.32635
G1 X73.721 Y57.706 E20.33668
G1 X57.706 Y73.721 E21.07493
G1 X57.472 Y73.512 E21.08516
