; generated by Slic3r 0.9.10b on 2014-03-01 at 14:00:18

; reverse engineered reference config

; layer_height = 0.3
; perimeters = 1
; top_solid_layers = 3
; bottom_solid_layers = 3
; fill_density = 0.25
; perimeter_speed = 30
; infill_speed = 48
; travel_speed = 250
; nozzle_diameter = 0.5
; filament_diameter = 1.75
; extrusion_multiplier = 0.8
; perimeters extrusion width = 0.70mm
; infill extrusion width = 0.70mm
; solid infill extrusion width = 0.70mm
; top infill extrusion width = 0.70mm
; first layer extrusion width = 0.60mm

G21 ; set units to millimeters
M107
M190 S57 ; wait for bed temperature to be reached
M104 S210 ; set temperature
G28 ; home all axes
G1 Z5 F5000 ; lift nozzle

M109 S210 ; wait for temperature to be reached
G90 ; use absolute coordinates
G92 E0
M82 ; use absolute distances for extrusion
G1 F1800.000 E-1.00000
G92 E0
G1 Z0.300 F15000.000
G1 X86.415 Y51.476
G1 F1800.000 E1.00000
G1 X87.565 Y49.536 F540.000 E1.13019
G1 X88.465 Y48.286 E1.21910
G1 X89.565 Y47.226 E1.30729
G1 X91.315 Y45.816 E1.43702
G1 X92.565 Y44.976 E1.52396
G1 X93.935 Y44.376 E1.61030
G1 X96.025 Y43.666 E1.73772
G1 X96.745 Y43.456 E1.78101
G1 X97.875 Y43.246 E1.84736
G1 X99.015 Y43.196 E1.91323
G1 X101.255 Y43.246 E2.04257
G1 X102.765 Y43.416 E2.13029
G1 X104.215 Y43.846 E2.21760
G1 X106.315 Y44.676 E2.34795
G1 X107.675 Y45.366 E2.43599
G1 X108.895 Y46.276 E2.52385
G1 X110.565 Y47.776 E2.65343
G1 X111.585 Y48.856 E2.73919
G1 X112.395 Y50.106 E2.82517
G1 X113.455 Y52.086 E2.95482
G1 X114.055 Y53.476 E3.04221
G1 X114.395 Y54.956 E3.12988
G1 X114.705 Y57.186 E3.25984
G1 X114.785 Y58.416 E3.33100
G1 X114.375 Y129.766 E7.44988
G1 X114.355 Y130.336 E7.48281
G1 X114.235 Y131.726 E7.56335
G1 X112.255 Y145.946 E8.39214
G1 X112.045 Y146.956 E8.45169
G1 X111.725 Y147.936 E8.51121
G1 X111.025 Y149.696 E8.62055
G1 X110.055 Y151.486 E8.73807
G1 X108.695 Y152.996 E8.85539
G1 X107.295 Y154.216 E8.96258
G1 X106.415 Y154.886 E9.02643
G1 X105.075 Y155.616 E9.11452
G1 X103.665 Y156.096 E9.20050
G1 X101.825 Y156.546 E9.30985
G1 X99.775 Y156.796 E9.42907
G1 X97.735 Y156.546 E9.54771
G1 X95.905 Y156.096 E9.65650
G1 X94.015 Y155.386 E9.77305
G1 X92.335 Y154.246 E9.89025
G1 X90.905 Y153.006 E9.99951
G1 X89.535 Y151.496 E10.11721
G1 X88.555 Y149.696 E10.23552
G1 X87.855 Y147.936 E10.34486
G1 X87.535 Y146.956 E10.40437
G1 X87.325 Y145.946 E10.46392
G1 X85.345 Y131.726 E11.29272
G1 X85.285 Y131.066 E11.33097
G1 X85.215 Y129.716 E11.40901
G1 X85.215 Y55.846 E15.67330
G1 X85.355 Y54.326 E15.76142
G1 X85.755 Y52.846 E15.84992
G1 X86.377 Y51.555 E15.93269
G1 F1800.000 E14.93269
G92 E0
G1 X99.795 Y109.725 F15000.000
G1 F1800.000 E1.00000
G1 X101.044 Y110.060 F540.000 E1.07466
G1 X101.958 Y110.974 E1.14931
G1 X102.293 Y112.224 E1.22398
G1 X101.958 Y113.473 E1.29862
G1 X101.044 Y114.387 E1.37328
G1 X99.795 Y114.722 E1.44795
G1 X98.546 Y114.387 E1.52259
G1 X98.370 Y114.212 E1.53691
G1 X97.631 Y113.473 E1.59725
G1 X97.296 Y112.224 E1.67191
G1 X97.631 Y110.974 E1.74657
G1 X98.546 Y110.060 E1.82125
G1 X99.711 Y109.748 E1.89087
G1 X99.795 Y110.324 F15000.000
G1 X100.744 Y110.579 F540.000 E1.94763
G1 X101.440 Y111.274 E2.00439
G1 X101.694 Y112.224 E2.06115
G1 X101.440 Y113.173 E2.11791
G1 X100.744 Y113.869 E2.17467
G1 X99.795 Y114.123 E2.23143
G1 X98.845 Y113.869 E2.28819
G1 X98.779 Y113.803 E2.29356
G1 X98.150 Y113.173 E2.34495
G1 X97.895 Y112.224 E2.40171
G1 X98.150 Y111.274 E2.45847
G1 X98.845 Y110.578 E2.51523
G1 X99.711 Y110.347 E2.56698
G1 F1800.000 E1.56698
G92 E0
G1 X90.795 Y129.876 F15000.000
G1 X99.795 Y126.175
G1 F1800.000 E1.00000
G1 X101.569 Y126.651 F540.000 E1.10603
G1 X101.751 Y126.833 E1.12094
G1 X102.868 Y127.949 E1.21207
G1 X103.343 Y129.724 E1.31810
G1 X102.868 Y131.498 E1.42413
G1 X101.569 Y132.796 E1.53016
G1 X99.795 Y133.272 E1.63619
G1 X98.020 Y132.797 E1.74223
G1 X97.838 Y132.614 E1.75713
G1 X96.722 Y131.498 E1.84826
G1 X96.246 Y129.724 E1.95429
G1 X96.722 Y127.949 E2.06032
G1 X98.020 Y126.651 E2.16636
G1 X99.711 Y126.198 E2.26738
G1 X99.795 Y126.774 F15000.000
G1 X101.269 Y127.169 F540.000 E2.35552
G1 X101.342 Y127.242 E2.36147
G1 X102.349 Y128.249 E2.44365
G1 X102.744 Y129.724 E2.53179
G1 X102.349 Y131.198 E2.61992
G1 X101.269 Y132.278 E2.70805
G1 X99.795 Y132.673 E2.79619
G1 X98.320 Y132.278 E2.88433
G1 X98.247 Y132.205 E2.89028
G1 X97.240 Y131.198 E2.97246
G1 X96.845 Y129.724 E3.06060
G1 X97.240 Y128.249 E3.14873
G1 X98.320 Y127.169 E3.23687
G1 X99.711 Y126.797 E3.31999
G1 F1800.000 E2.31999
G92 E0
G1 X99.795 Y126.556 F15000.000
G1 X98.140 Y126.999
G1 X96.568 Y129.723
G1 X99.645 Y142.066
G1 X99.795 Y141.725
G1 F1800.000 E1.00000
G1 X101.044 Y142.060 F540.000 E1.07465
G1 X101.958 Y142.974 E1.14931
G1 X102.293 Y144.224 E1.22397
G1 X101.958 Y145.473 E1.29864
G1 X101.044 Y146.387 E1.37329
G1 X99.795 Y146.722 E1.44794
G1 X98.545 Y146.387 E1.52261
G1 X97.631 Y145.473 E1.59726
G1 X97.296 Y144.224 E1.67191
G1 X97.631 Y142.974 E1.74656
G1 X98.545 Y142.060 E1.82122
G1 X99.711 Y141.748 E1.89088
G1 X99.795 Y142.324 F15000.000
G1 X100.744 Y142.579 F540.000 E1.94763
G1 X101.440 Y143.274 E2.00439
G1 X101.694 Y144.224 E2.06116
G1 X101.440 Y145.173 E2.11792
G1 X100.744 Y145.869 E2.17467
G1 X99.795 Y146.123 E2.23143
G1 X98.845 Y145.869 E2.28820
G1 X98.150 Y145.173 E2.34495
G1 X97.895 Y144.224 E2.40171
G1 X98.150 Y143.274 E2.45847
G1 X98.845 Y142.579 E2.51523
G1 X99.711 Y142.347 E2.56698
G1 F1800.000 E1.56698
G92 E0
G1 X99.645 Y142.066 F15000.000
G1 X96.312 Y144.587
G1 X96.678 Y144.552
G1 F1800.000 E1.00000
G1 X94.716 Y130.461 F540.000 E1.82130
G1 X94.662 Y129.693 E1.86572
G1 X94.662 Y96.229 E3.79750
G1 X95.571 Y62.730 E5.73201
G1 X97.365 Y62.286 E5.83867
G1 X99.943 Y62.077 E5.98800
G1 X101.794 Y61.581 E6.09860
G1 X103.257 Y60.118 E6.21808
G1 X103.793 Y58.119 E6.33756
G1 X103.257 Y56.119 E6.45704
G1 X101.794 Y54.656 E6.57652
G1 X99.880 Y54.143 E6.69092
G1 X96.647 Y54.365 E6.87795
G1 X95.970 Y54.506 E6.91791
G1 X95.866 Y54.288 E6.93183
G1 X97.122 Y53.273 E7.02505
G1 X98.958 Y52.648 E7.13705
G1 X100.898 Y52.695 E7.24904
G1 X102.702 Y53.409 E7.36104
G1 X104.149 Y54.702 E7.47304
G1 X105.060 Y56.415 E7.58503
G1 X105.335 Y58.414 E7.70152
G1 X104.026 Y91.610 E9.61932
G1 X102.224 Y92.056 E9.72646
G1 X99.646 Y92.265 E9.87578
G1 X97.795 Y92.761 E9.98638
G1 X96.332 Y94.224 E10.10586
G1 X95.796 Y96.224 E10.22534
G1 X96.332 Y98.223 E10.34482
G1 X97.795 Y99.686 E10.46430
G1 X99.710 Y100.199 E10.57871
G1 X102.942 Y99.977 E10.76574
G1 X104.927 Y99.563 E10.88278
G1 X104.927 Y129.694 E12.62212
G1 X104.874 Y130.461 E12.66654
G1 X102.911 Y144.552 E13.48784
G1 X102.271 Y146.168 E13.58812
G1 X102.190 Y146.141 E13.59308
G1 X100.922 Y147.245 E13.69013
G1 X100.778 Y147.091 E13.70226
G1 X99.795 Y147.330 E13.76072
G1 X98.810 Y147.091 E13.81920
G1 X98.667 Y147.244 E13.83131
G1 X97.399 Y146.141 E13.92834
G1 X97.318 Y146.168 E13.93330
G1 X96.710 Y144.633 E14.02857
G1 X96.115 Y144.701 F15000.000
G1 X94.140 Y130.521 F540.000 E14.85503
G1 X94.084 Y129.714 E14.90176
G1 X94.086 Y96.067 E16.84405
G1 X95.005 Y62.274 E18.79554
G1 X97.271 Y61.713 E18.93032
G1 X99.844 Y61.505 E19.07932
G1 X101.494 Y61.063 E19.17794
G1 X102.739 Y59.818 E19.27952
G1 X103.194 Y58.119 E19.38110
G1 X102.739 Y56.419 E19.48269
G1 X101.494 Y55.175 E19.58427
G1 X99.823 Y54.727 E19.68416
G1 X96.727 Y54.939 E19.86332
G1 X94.381 Y55.429 E20.00165
G1 X95.169 Y54.108 E20.09045
G1 X96.838 Y52.758 E20.21434
G1 X98.870 Y52.067 E20.33822
G1 X101.015 Y52.119 E20.46211
G1 X103.011 Y52.909 E20.58600
G1 X104.611 Y54.339 E20.70989
G1 X105.619 Y56.234 E20.83377
G1 X105.915 Y58.386 E20.95916
G1 X104.587 Y92.067 E22.90500
G1 X102.318 Y92.629 E23.03994
G1 X99.745 Y92.837 E23.18894
G1 X98.095 Y93.280 E23.28756
G1 X96.851 Y94.524 E23.38914
G1 X96.395 Y96.224 E23.49073
G1 X96.851 Y97.923 E23.59231
G1 X98.095 Y99.168 E23.69389
G1 X99.766 Y99.615 E23.79378
G1 X102.863 Y99.403 E23.97295
G1 X105.505 Y98.851 E24.12878
G1 X105.505 Y129.714 E25.91036
G1 X105.449 Y130.521 E25.95710
G1 X103.475 Y144.701 E26.78355
G1 X102.817 Y146.362 E26.88669
G1 X101.496 Y147.512 E26.98778
G1 X99.795 Y147.926 E27.08886
G1 X98.093 Y147.512 E27.18994
G1 X96.772 Y146.362 E27.29102
G1 X96.146 Y144.782 E27.38915
G1 X96.974 Y143.039 F15000.000
G1 X96.877 Y142.942 F864.000 E27.39703
G1 X97.383 Y142.629 E27.43140
G1 X96.745 Y141.991 E27.48357
G1 X96.612 Y141.039 E27.53907
G1 X97.792 Y142.220 E27.63551
G1 X98.202 Y141.810 E27.66897
G1 X96.480 Y140.088 E27.80969
G1 X96.347 Y139.137 E27.86519
G1 X98.775 Y141.564 E28.06355
G1 X99.421 Y141.391 E28.10218
G1 X96.215 Y138.185 E28.36413
G1 X96.082 Y137.234 E28.41963
G1 X100.265 Y141.417 E28.76143
G1 F1800.000 E27.76143
G92 E0
G1 X100.069 Y142.180 F15000.000
G1 X102.100 Y144.225
G1 X102.900 Y141.595
G1 F1800.000 E1.00000
G1 X95.685 Y134.380 F864.000 E1.58952
G1 X95.552 Y133.428 E1.64502
G1 X103.000 Y140.876 E2.25355
G1 X103.100 Y140.157 E2.29548
G1 X95.420 Y132.477 E2.92301
G1 X95.287 Y131.526 E2.97850
G1 X103.200 Y139.439 E3.62504
G1 X103.300 Y138.720 E3.66697
G1 X95.155 Y130.574 E4.33251
G1 X96.064 Y130.665 E4.38532
G1 X95.022 Y129.623 E4.47047
G1 X95.082 Y128.864 E4.51448
G1 X95.839 Y129.621 E4.57639
G1 X96.012 Y128.975 E4.61502
G1 X95.082 Y128.045 E4.69107
G1 X95.082 Y127.226 E4.73838
G1 X96.186 Y128.330 E4.82857
G1 X96.376 Y127.702 E4.86650
G1 X95.082 Y126.407 E4.97228
G1 X95.082 Y125.588 E5.01959
G1 X96.786 Y127.292 E5.15882
G1 X97.195 Y126.883 E5.19228
G1 X95.082 Y124.769 E5.36496
G1 X95.082 Y123.950 E5.41228
G1 X97.605 Y126.473 E5.61842
G1 X98.136 Y126.185 E5.65332
G1 X95.082 Y123.131 E5.90285
G1 X95.082 Y122.313 E5.95016
G1 X98.782 Y126.012 E6.25247
G1 X99.427 Y125.839 E6.29110
G1 X95.082 Y121.494 E6.64617
G1 X95.082 Y120.675 E6.69348
G1 X100.277 Y125.870 E7.11799
G1 X101.396 Y126.170 E7.18490
G1 X95.082 Y119.856 E7.70080
G1 X95.082 Y119.037 E7.74812
G1 X104.507 Y128.463 E8.51827
G1 X104.507 Y127.644 E8.56558
G1 X95.082 Y118.218 E9.33574
G1 X95.082 Y117.399 E9.38305
G1 X104.507 Y126.825 E10.15320
G1 X104.507 Y126.006 E10.20051
G1 X95.082 Y116.580 E10.97067
G1 X95.082 Y115.762 E11.01798
G1 X104.507 Y125.187 E11.78814
G1 X104.507 Y124.368 E11.83545
G1 X95.082 Y114.943 E12.60560
G1 X95.082 Y114.124 E12.65291
G1 X104.507 Y123.550 E13.42307
G1 X104.507 Y122.731 E13.47038
G1 X95.082 Y113.305 E14.24054
G1 X95.082 Y112.486 E14.28785
G1 X104.507 Y121.912 E15.05800
G1 X104.507 Y121.093 E15.10531
G1 X95.082 Y111.667 E15.87547
G1 X95.082 Y110.848 E15.92278
G1 X97.010 Y112.777 E16.08036
G1 X96.950 Y111.897 E16.13131
G1 X95.082 Y110.029 E16.28393
G1 X95.082 Y109.211 E16.33124
G1 X97.123 Y111.251 E16.49799
G1 X97.351 Y110.661 E16.53456
G1 X95.082 Y108.392 E16.71999
G1 X95.082 Y107.573 E16.76730
G1 X97.761 Y110.252 E16.98618
G1 X98.170 Y109.842 E17.01963
G1 X95.082 Y106.754 E17.27197
G1 X95.082 Y105.935 E17.31928
G1 X98.724 Y109.578 E17.61690
G1 X99.370 Y109.405 E17.65553
G1 X95.082 Y105.116 E18.00593
G1 X95.082 Y104.297 E18.05324
G1 X100.178 Y109.394 E18.46966
G1 F1800.000 E17.46966
G92 E0
G1 X100.069 Y110.179 F15000.000
G1 X102.100 Y112.225
G1 X102.624 Y111.840
G1 F1800.000 E1.00000
G1 X104.507 Y113.723 F864.000 E1.15387
G1 X104.507 Y112.904 E1.20118
G1 X95.082 Y103.478 E1.97133
G1 X95.082 Y102.660 E2.01864
G1 X104.507 Y112.085 E2.78880
G1 X104.507 Y111.266 E2.83611
G1 X95.082 Y101.841 E3.60626
G1 X95.082 Y101.022 E3.65358
G1 X104.507 Y110.448 E4.42373
G1 X104.507 Y109.629 E4.47104
G1 X95.082 Y100.203 E5.24120
G1 X95.082 Y99.384 E5.28851
G1 X104.507 Y108.810 E6.05866
G1 X104.507 Y107.991 E6.10597
G1 X95.082 Y98.565 E6.87613
G1 X95.082 Y97.746 E6.92344
G1 X104.507 Y107.172 E7.69360
G1 X104.507 Y106.353 E7.74091
G1 X98.450 Y100.296 E8.23584
G1 X99.569 Y100.596 E8.30275
G1 X104.507 Y105.534 E8.70629
G1 X104.507 Y104.715 E8.75360
G1 X100.366 Y100.574 E9.09196
G1 X101.133 Y100.522 E9.13633
G1 X104.507 Y103.897 E9.41208
G1 X104.507 Y103.078 E9.45939
G1 X101.899 Y100.469 E9.67253
G1 X102.665 Y100.417 E9.71690
G1 X104.507 Y102.259 E9.86743
G1 X104.507 Y101.440 E9.91474
G1 X103.381 Y100.314 E10.00675
G1 X104.059 Y100.173 E10.04674
G1 X104.507 Y100.621 E10.08339
G1 F1800.000 E9.08339
G92 E0
G1 X105.294 Y99.069 F15000.000
G1 X99.693 Y99.842
G1 X96.681 Y98.103
G1 X95.722 Y97.568
G1 F1800.000 E1.00000
G1 X95.301 Y97.147 F864.000 E1.03441
G1 F1800.000 E0.03441
G92 E0
G1 X96.158 Y96.153 F15000.000
G1 X96.681 Y98.103
G1 X102.100 Y112.225
G1 X102.613 Y112.648
G1 F1800.000 E1.00000
G1 X104.507 Y114.542 F864.000 E1.15476
G1 X104.507 Y115.361 E1.20207
G1 X102.440 Y113.294 E1.37096
G1 X102.176 Y113.848 E1.40645
G1 X104.507 Y116.180 E1.59696
G1 X104.507 Y116.999 E1.64427
G1 X101.766 Y114.258 E1.86824
G1 X101.357 Y114.667 E1.90169
G1 X104.507 Y117.817 E2.15911
G1 X104.507 Y118.636 E2.20642
G1 X100.767 Y114.896 E2.51207
G1 X100.121 Y115.069 E2.55070
G1 X104.507 Y119.455 E2.90912
G1 X104.507 Y120.274 E2.95643
G1 X99.241 Y115.008 E3.38672
G1 F1800.000 E2.38672
G92 E0
G1 X99.795 Y114.531 F15000.000
G1 X102.519 Y128.070
G1 X103.348 Y128.122
G1 F1800.000 E1.00000
G1 X104.507 Y129.282 F864.000 E1.09473
G1 X104.507 Y130.101 E1.14204
G1 X103.648 Y129.241 E1.21228
G1 X103.679 Y130.091 E1.26141
G1 X104.401 Y130.813 E1.32044
G1 X104.301 Y131.532 E1.36237
G1 X103.506 Y130.737 E1.42736
G1 X103.333 Y131.382 E1.46599
G1 X104.201 Y132.251 E1.53694
G1 X104.101 Y132.970 E1.57887
G1 X103.045 Y131.913 E1.66516
G1 X102.635 Y132.323 E1.69861
G1 X104.001 Y133.688 E1.81017
G1 X103.901 Y134.407 E1.85210
G1 X102.226 Y132.732 E1.98894
G1 X101.817 Y133.142 E2.02239
G1 X103.801 Y135.126 E2.18450
G1 X103.700 Y135.845 E2.22643
G1 X101.188 Y133.333 E2.43169
G1 X100.543 Y133.506 E2.47032
G1 X103.600 Y136.563 E2.72016
G1 X103.500 Y137.282 E2.76209
G1 X99.897 Y133.679 E3.05652
G1 X98.853 Y133.454 E3.11821
G1 X103.400 Y138.001 E3.48976
G1 F1800.000 E2.48976
G92 E0
G1 X100.069 Y142.180 F15000.000
G1 X102.100 Y144.225
G1 X102.800 Y142.314
G1 F1800.000 E1.00000
G1 X95.817 Y135.331 F864.000 E1.57052
G1 X95.950 Y136.283 E1.62602
G1 X102.700 Y143.032 E2.17753
G1 F1800.000 E1.17753
G92 E0
G1 X102.100 Y144.225 F15000.000
G1 X100.069 Y142.180
G1 X99.645 Y142.066
G1 X97.487 Y144.224
G1 X97.013 Y143.701
G1 F1800.000 E1.00000
G1 X96.966 Y143.654 F360.000 E1.00195
G1 X97.101 Y143.371 E1.01121
G1 X97.048 Y143.318 E1.01343
G1 F1800.000 E0.01343
G92 E0
G1 X97.487 Y144.224 F15000.000
G1 X99.645 Y142.066
G1 X100.069 Y142.180
G1 X102.100 Y144.225
G1 X102.648 Y143.479
G1 F1800.000 E1.00000
G1 X102.469 Y143.301 F360.000 E1.00744
G1 F1800.000 E0.00744
G92 E0
G1 X102.100 Y144.225 F15000.000
G1 X102.981 Y129.794
G1 X102.519 Y128.070
G1 X97.488 Y112.224
G1 X96.158 Y96.153
G1 X95.366 Y97.212
G1 F1800.000 E1.00000
G1 X95.252 Y97.097 F360.000 E1.00938
G1 X95.361 Y95.569 F15000.000
G1 X95.270 Y95.478 F360.000 E1.01683
G1 X95.287 Y94.676 F15000.000
G1 X95.126 Y94.516 F864.000 E1.02995
G1 X95.696 Y94.267 E1.06585
G1 X95.148 Y93.718 E1.11062
G1 X95.170 Y92.921 E1.15666
G1 X96.106 Y93.857 E1.23308
G1 X96.515 Y93.448 E1.26650
G1 X95.191 Y92.124 E1.37458
G1 X95.213 Y91.327 E1.42062
G1 X96.925 Y93.038 E1.56035
G1 X97.334 Y92.629 E1.59378
G1 X95.235 Y90.530 E1.76517
G1 X95.257 Y89.732 E1.81120
G1 X97.839 Y92.315 E2.02204
G1 X98.485 Y92.142 E2.06064
G1 X95.278 Y88.935 E2.32243
G1 X95.300 Y88.138 E2.36846
G1 X99.131 Y91.969 E2.68121
G1 X99.812 Y91.831 E2.72131
G1 X95.322 Y87.341 E3.08786
G1 X95.343 Y86.544 E3.13390
G1 X100.569 Y91.769 E3.56052
G1 X101.326 Y91.708 E3.60439
G1 X95.365 Y85.746 E4.09108
G1 X95.387 Y84.949 E4.13712
G1 X102.084 Y91.647 E4.68387
G1 X102.750 Y91.494 E4.72332
G1 X95.408 Y84.152 E5.32268
G1 X95.430 Y83.355 E5.36872
G1 X103.406 Y91.331 E6.01990
G1 X103.640 Y90.746 E6.05626
G1 X95.452 Y82.558 E6.72477
G1 X95.473 Y81.760 E6.77081
G1 X103.671 Y89.958 E7.44008
G1 X103.702 Y89.171 E7.48559
G1 X95.495 Y80.963 E8.15563
G1 X95.517 Y80.166 E8.20167
G1 X103.734 Y88.383 E8.87247
G1 X103.765 Y87.595 E8.91798
G1 X95.538 Y79.369 E9.58956
G1 X95.560 Y78.572 E9.63559
G1 X103.796 Y86.807 E10.30793
G1 X103.827 Y86.019 E10.35345
G1 X95.582 Y77.775 E11.02655
G1 X95.603 Y76.977 E11.07259
G1 X103.858 Y85.232 E11.74646
G1 X103.889 Y84.444 E11.79197
G1 X95.625 Y76.180 E12.46661
G1 X95.647 Y75.383 E12.51265
