; generated by Slic3r 0.9.10b on 2014-03-01 at 15:10:52

; reverse engineered reference config

; layer_height = 0.3
; perimeters = 1
; top_solid_layers = 3
; bottom_solid_layers = 3
; fill_density = 0.25
; perimeter_speed = 30
; infill_speed = 48
; travel_speed = 250
; nozzle_diameter = 0.3
; filament_diameter = 1.75
; extrusion_multiplier = 0.8
; perimeters extrusion width = 0.32mm
; infill extrusion width = 0.32mm
; solid infill extrusion width = 0.32mm
; top infill extrusion width = 0.32mm
; first layer extrusion width = 0.60mm

G21 ; set units to millimeters
M107
M190 S57 ; wait for bed temperature to be reached
M104 S210 ; set temperature
G28
G1 Z0.3 F200
G1 X15 Y20 F12000
M109 S210 ; wait for temperature to be reached
G90 ; use absolute coordinates
G92 E0
M82 ; use absolute distances for extrusion
G1 F2220.000 E-1.75000
G1 Z1.300 F15000.000
G92 E0
G1 X66.455 Y31.496
G1 Z0.300
G1 F2220.000 E1.75000
G1 X67.605 Y29.556 F540.000 E1.87053
G1 X68.495 Y28.316 E1.95210
G1 X69.585 Y27.256 E2.03336
G1 X71.335 Y25.846 E2.15347
G1 X72.585 Y25.016 E2.23366
G1 X73.945 Y24.416 E2.31311
G1 X76.035 Y23.706 E2.43107
G1 X76.755 Y23.496 E2.47116
G1 X77.875 Y23.296 E2.53196
G1 X79.015 Y23.246 E2.59295
G1 X81.255 Y23.296 E2.71269
G1 X82.755 Y23.456 E2.79331
G1 X84.205 Y23.886 E2.87414
G1 X86.305 Y24.716 E2.99482
G1 X87.655 Y25.396 E3.07561
G1 X88.865 Y26.306 E3.15652
G1 X90.535 Y27.806 E3.27649
G1 X91.555 Y28.886 E3.35589
G1 X92.365 Y30.126 E3.43504
G1 X93.425 Y32.106 E3.55507
G1 X94.015 Y33.496 E3.63578
G1 X94.345 Y34.956 E3.71577
G1 X94.655 Y37.186 E3.83610
G1 X94.745 Y38.416 E3.90201
G1 X94.335 Y109.766 E7.71533
G1 X94.245 Y111.166 E7.79030
G1 X94.185 Y111.726 E7.82040
G1 X92.205 Y125.946 E8.58771
G1 X92.005 Y126.946 E8.64222
G1 X91.685 Y127.916 E8.69681
G1 X90.985 Y129.676 E8.79804
G1 X90.025 Y131.456 E8.90612
G1 X88.665 Y132.966 E9.01473
G1 X87.265 Y134.186 E9.11397
G1 X86.385 Y134.846 E9.17276
G1 X85.055 Y135.576 E9.25385
G1 X83.655 Y136.056 E9.33294
G1 X81.815 Y136.506 E9.43418
G1 X79.775 Y136.756 E9.54402
G1 X77.745 Y136.506 E9.65333
G1 X75.915 Y136.056 E9.75405
G1 X74.035 Y135.346 E9.86145
G1 X72.365 Y134.216 E9.96922
G1 X70.935 Y132.976 E10.07037
G1 X69.565 Y131.466 E10.17934
G1 X68.595 Y129.676 E10.28815
G1 X67.895 Y127.916 E10.38938
G1 X67.575 Y126.946 E10.44396
G1 X67.375 Y125.946 E10.49847
G1 X65.395 Y111.726 E11.26578
G1 X65.325 Y111.056 E11.30178
G1 X65.255 Y109.716 E11.37349
G1 X65.255 Y35.846 E15.32143
G1 X65.395 Y34.336 E15.40247
G1 X65.795 Y32.866 E15.48389
G1 X66.420 Y31.569 E15.56087
G1 F2220.000 E13.81087
G1 Z1.300 F15000.000
G92 E0
G1 X79.795 Y89.792
G1 Z0.300
G1 F2220.000 E1.75000
G1 X81.011 Y90.118 F540.000 E1.81728
G1 X81.901 Y91.008 E1.88455
G1 X82.226 Y92.224 E1.95183
G1 X81.901 Y93.439 E2.01909
G1 X81.011 Y94.329 E2.08637
G1 X79.795 Y94.655 E2.15365
G1 X78.579 Y94.330 E2.22092
G1 X78.416 Y94.166 E2.23325
G1 X77.689 Y93.439 E2.28819
G1 X77.363 Y92.224 E2.35546
G1 X77.689 Y91.008 E2.42275
G1 X78.579 Y90.117 E2.49004
G1 X79.717 Y89.813 E2.55300
G1 X79.795 Y90.346 F15000.000
G1 X80.733 Y90.598 F540.000 E2.60493
G1 X81.420 Y91.285 E2.65687
G1 X81.672 Y92.224 E2.70880
G1 X81.420 Y93.162 E2.76073
G1 X80.733 Y93.849 E2.81267
G1 X79.795 Y94.101 E2.86461
G1 X78.856 Y93.849 E2.91654
G1 X78.794 Y93.788 E2.92120
G1 X78.169 Y93.162 E2.96847
G1 X77.917 Y92.224 E3.02040
G1 X78.169 Y91.285 E3.07234
G1 X78.856 Y90.598 E3.12428
G1 X79.717 Y90.367 E3.17191
G1 F2220.000 E1.42191
G1 Z1.300 F15000.000
G92 E0
G1 X70.795 Y109.876
G1 X79.795 Y106.242
G1 Z0.300
G1 F2220.000 E1.75000
G1 X81.535 Y106.708 F540.000 E1.84632
G1 X81.706 Y106.879 E1.85920
G1 X82.810 Y107.983 E1.94265
G1 X83.276 Y109.724 E2.03897
G1 X82.810 Y111.464 E2.13529
G1 X81.536 Y112.739 E2.23161
G1 X79.795 Y113.205 E2.32793
G1 X78.054 Y112.739 E2.42426
G1 X77.883 Y112.568 E2.43714
G1 X76.779 Y111.464 E2.52058
G1 X76.313 Y109.724 E2.61690
G1 X76.779 Y107.983 E2.71322
G1 X78.054 Y106.708 E2.80955
G1 X79.717 Y106.263 E2.90157
G1 X79.795 Y106.796 F15000.000
G1 X81.258 Y107.188 F540.000 E2.98256
G1 X81.327 Y107.257 E2.98777
G1 X82.330 Y108.260 E3.06354
G1 X82.722 Y109.724 E3.14452
G1 X82.330 Y111.187 E3.22550
G1 X81.258 Y112.259 E3.30648
G1 X79.795 Y112.651 E3.38747
G1 X78.331 Y112.259 E3.46845
G1 X78.262 Y112.190 E3.47366
G1 X77.260 Y111.187 E3.54943
G1 X76.867 Y109.724 E3.63041
G1 X77.260 Y108.260 E3.71139
G1 X78.331 Y107.188 E3.79238
G1 X79.717 Y106.817 E3.86906
G1 F2220.000 E2.11906
G1 Z1.300 F15000.000
G92 E0
G1 X79.795 Y106.556
G1 X78.140 Y106.999
G1 X76.568 Y109.723
G1 X79.645 Y122.066
G1 X79.795 Y121.792
G1 Z0.300
G1 F2220.000 E1.75000
G1 X81.010 Y122.118 F540.000 E1.81727
G1 X81.901 Y123.008 E1.88454
G1 X82.226 Y124.224 E1.95182
G1 X81.900 Y125.440 E2.01911
G1 X81.010 Y126.330 E2.08638
G1 X79.795 Y126.655 E2.15364
G1 X78.579 Y126.329 E2.22093
G1 X77.689 Y125.440 E2.28819
G1 X77.363 Y124.224 E2.35546
G1 X77.689 Y123.008 E2.42274
G1 X78.579 Y122.118 E2.49001
G1 X79.717 Y121.813 E2.55300
G1 X79.795 Y122.346 F15000.000
G1 X80.733 Y122.598 F540.000 E2.60493
G1 X81.420 Y123.285 E2.65687
G1 X81.672 Y124.224 E2.70880
G1 X81.420 Y125.162 E2.76074
G1 X80.733 Y125.849 E2.81267
G1 X79.795 Y126.101 E2.86460
G1 X78.856 Y125.849 E2.91654
G1 X78.169 Y125.162 E2.96847
G1 X77.917 Y124.224 E3.02040
G1 X78.169 Y123.285 E3.07234
G1 X78.856 Y122.598 E3.12427
G1 X79.717 Y122.367 E3.17191
G1 F2220.000 E1.42191
G1 Z1.300 F15000.000
G92 E0
G1 X79.645 Y122.066
G1 X76.312 Y124.587
G1 X76.615 Y124.569
G1 Z0.300
G1 F2220.000 E1.75000
G1 X74.652 Y110.468 F540.000 E2.51090
G1 X74.598 Y109.696 E2.55226
G1 X74.598 Y76.229 E4.34087
G1 X75.508 Y42.680 E6.13456
G1 X77.355 Y42.222 E6.23620
G1 X79.932 Y42.013 E6.37442
G1 X81.761 Y41.524 E6.47558
G1 X83.200 Y40.084 E6.58435
G1 X83.726 Y38.119 E6.69312
G1 X83.200 Y36.153 E6.80189
G1 X81.761 Y34.714 E6.91066
G1 X79.873 Y34.208 E7.01509
G1 X76.656 Y34.429 E7.18743
G1 X75.685 Y34.631 E7.24045
G1 X75.589 Y34.430 E7.25239
G1 X77.090 Y33.215 E7.35557
G1 X78.949 Y32.583 E7.46048
G1 X80.911 Y32.631 E7.56539
G1 X82.736 Y33.354 E7.67030
G1 X84.200 Y34.662 E7.77522
G1 X85.122 Y36.395 E7.88013
G1 X85.400 Y38.411 E7.98889
G1 X84.088 Y71.661 E9.76730
G1 X82.235 Y72.120 E9.86936
G1 X79.657 Y72.329 E10.00757
G1 X77.829 Y72.819 E10.10873
G1 X76.390 Y74.258 E10.21750
G1 X75.863 Y76.224 E10.32627
G1 X76.390 Y78.189 E10.43505
G1 X77.829 Y79.629 E10.54382
G1 X79.716 Y80.134 E10.64824
G1 X82.933 Y79.913 E10.82058
G1 X84.991 Y79.484 E10.93294
G1 X84.991 Y109.696 E12.54759
G1 X84.938 Y110.468 E12.58896
G1 X82.974 Y124.569 E13.34986
G1 X82.385 Y126.056 E13.43536
G1 X81.253 Y127.042 E13.51557
G1 X79.795 Y127.397 E13.59578
G1 X78.336 Y127.042 E13.67598
G1 X77.204 Y126.056 E13.75619
G1 X76.645 Y124.644 E13.83740
G1 X76.094 Y124.706 F15000.000
G1 X74.118 Y110.523 F540.000 E14.60272
G1 X74.062 Y109.714 E14.64607
G1 X74.065 Y76.067 E16.44432
G1 X74.984 Y42.258 E18.25191
G1 X77.268 Y41.692 E18.37766
G1 X79.840 Y41.484 E18.51560
G1 X81.483 Y41.043 E18.60649
G1 X82.719 Y39.807 E18.69992
G1 X83.172 Y38.119 E18.79335
G1 X82.719 Y36.430 E18.88679
G1 X81.483 Y35.194 E18.98022
G1 X79.821 Y34.748 E19.07220
G1 X76.730 Y34.961 E19.23780
G1 X74.337 Y35.460 E19.36840
G1 X75.153 Y34.094 E19.45343
G1 X76.827 Y32.739 E19.56853
G1 X78.866 Y32.045 E19.68364
G1 X81.019 Y32.098 E19.79874
G1 X83.022 Y32.891 E19.91385
G1 X84.628 Y34.326 E20.02896
G1 X85.640 Y36.227 E20.14406
G1 X85.937 Y38.384 E20.26045
G1 X84.608 Y72.084 E22.06289
G1 X82.321 Y72.650 E22.18878
G1 X79.749 Y72.859 E22.32672
G1 X78.106 Y73.299 E22.41761
G1 X76.870 Y74.535 E22.51104
G1 X76.417 Y76.224 E22.60447
G1 X76.870 Y77.912 E22.69790
G1 X78.106 Y79.148 E22.79133
G1 X79.768 Y79.594 E22.88332
G1 X82.860 Y79.381 E23.04892
G1 X85.527 Y78.825 E23.19453
G1 X85.527 Y109.714 E24.84539
G1 X85.471 Y110.523 E24.88873
G1 X83.496 Y124.707 E25.65405
G1 X82.835 Y126.375 E25.74996
G1 X81.506 Y127.531 E25.84410
G1 X79.795 Y127.948 E25.93824
G1 X78.083 Y127.531 E26.03238
G1 X76.754 Y126.375 E26.12652
G1 X76.123 Y124.781 E26.21813
G1 F2220.000 E24.46813
G1 Z1.300 F15000.000
G92 E0
G1 X76.312 Y124.587
G1 X77.487 Y124.224
G1 X77.152 Y122.995
G1 Z0.300
G1 F2220.000 E1.75000
G1 X76.729 Y122.572 F864.000 E1.78202
G1 X77.531 Y122.616 E1.82501
G1 X76.606 Y121.691 E1.89499
G1 X76.484 Y120.810 E1.94259
G1 X77.910 Y122.237 E2.05055
G1 X78.290 Y121.858 E2.07925
G1 X76.361 Y119.929 E2.22518
G1 X76.238 Y119.048 E2.27278
G1 X78.837 Y121.647 E2.46940
G1 X79.435 Y121.486 E2.50253
G1 X76.116 Y118.167 E2.75370
G1 X75.993 Y117.286 E2.80130
G1 X80.208 Y121.500 E3.12022
G1 F2220.000 E1.37022
G1 Z1.300 F15000.000
G92 E0
G1 X80.069 Y122.180
G1 X82.100 Y124.225
G1 X82.945 Y121.963
G1 Z0.300
G1 F2220.000 E1.75000
G1 X75.625 Y114.643 F864.000 E2.30391
G1 X75.502 Y113.762 E2.35150
G1 X83.038 Y121.297 E2.92171
G1 X83.130 Y120.631 E2.95767
G1 X75.379 Y112.881 E3.54418
G1 X75.257 Y112.000 E3.59177
G1 X83.223 Y119.966 E4.19458
G1 X83.316 Y119.300 E4.23054
G1 X75.134 Y111.118 E4.84964
G1 X75.026 Y110.252 E4.89638
G1 X76.428 Y111.654 E5.00252
G1 X76.151 Y110.618 E5.05990
G1 X74.986 Y109.454 E5.14802
G1 X74.986 Y108.696 E5.18860
G1 X75.933 Y109.642 E5.26022
G1 X76.093 Y109.044 E5.29335
G1 X74.986 Y107.937 E5.37711
G1 X74.986 Y107.179 E5.41768
G1 X76.253 Y108.446 E5.51356
G1 X76.414 Y107.848 E5.54670
G1 X74.986 Y106.420 E5.65470
G1 X74.986 Y105.662 E5.69528
G1 X76.769 Y107.444 E5.83015
G1 X77.148 Y107.065 E5.85884
G1 X74.986 Y104.904 E6.02240
G1 X74.986 Y104.145 E6.06298
G1 X77.527 Y106.686 E6.25523
G1 X77.937 Y106.338 E6.28402
G1 X74.986 Y103.387 E6.50730
G1 X74.986 Y102.629 E6.54787
G1 X78.535 Y106.177 E6.81641
G1 X79.133 Y106.017 E6.84954
G1 X74.986 Y101.870 E7.16334
G1 X74.986 Y101.112 E7.20391
G1 X79.731 Y105.857 E7.56297
G1 X80.721 Y106.088 E7.61734
G1 X74.986 Y100.353 E8.05127
G1 X74.986 Y99.595 E8.09185
G1 X84.603 Y109.212 E8.81955
G1 X84.584 Y109.952 E8.85914
G1 X83.430 Y108.797 E8.94648
G1 X83.661 Y109.787 E9.00086
G1 X84.521 Y110.646 E9.06590
G1 X84.428 Y111.312 E9.10186
G1 X83.501 Y110.385 E9.17201
G1 X83.341 Y110.983 E9.20515
G1 X84.335 Y111.978 E9.28041
G1 X84.243 Y112.643 E9.31637
G1 X83.180 Y111.581 E9.39675
G1 X82.832 Y111.991 E9.42554
G1 X84.150 Y113.309 E9.52527
G1 X84.057 Y113.975 E9.56123
G1 X82.453 Y112.370 E9.68263
G1 X82.074 Y112.750 E9.71133
G1 X83.965 Y114.640 E9.85441
G1 X83.872 Y115.306 E9.89037
G1 X81.670 Y113.105 E10.05697
G1 X81.072 Y113.265 E10.09010
G1 X83.779 Y115.972 E10.29493
G1 X83.687 Y116.637 E10.33090
G1 X80.474 Y113.425 E10.57397
G1 X79.876 Y113.585 E10.60711
G1 X83.594 Y117.303 E10.88843
G1 X83.501 Y117.969 E10.92439
G1 X78.900 Y113.367 E11.27257
G1 X77.864 Y113.090 E11.32996
G1 X83.408 Y118.634 E11.74952
G1 F2220.000 E9.99952
G1 Z1.300 F15000.000
G92 E0
G1 X80.069 Y122.180
G1 X82.100 Y124.225
G1 X82.852 Y122.628
G1 Z0.300
G1 F2220.000 E1.75000
G1 X75.748 Y115.524 F864.000 E2.28761
G1 X75.870 Y116.405 E2.33520
G1 X82.759 Y123.294 E2.85651
G1 F2220.000 E1.10651
G1 Z1.300 F15000.000
G92 E0
G1 X82.100 Y124.225
G1 X82.981 Y109.794
G1 X84.603 Y108.453
G1 Z0.300
G1 F2220.000 E1.75000
G1 X74.986 Y98.837 F864.000 E2.47770
G1 X74.986 Y98.078 E2.51828
G1 X84.603 Y107.695 E3.24598
G1 X84.603 Y106.937 E3.28655
G1 X74.986 Y97.320 E4.01425
G1 X74.986 Y96.562 E4.05483
G1 X84.603 Y106.178 E4.78253
G1 X84.603 Y105.420 E4.82311
G1 X74.986 Y95.803 E5.55081
G1 X74.986 Y95.045 E5.59139
G1 X84.603 Y104.662 E6.31909
G1 X84.603 Y103.903 E6.35966
G1 X74.986 Y94.287 E7.08736
G1 X74.986 Y93.528 E7.12794
G1 X84.603 Y103.145 E7.85564
G1 X84.603 Y102.387 E7.89622
G1 X74.986 Y92.770 E8.62392
G1 X74.986 Y92.011 E8.66449
G1 X84.603 Y101.628 E9.39219
G1 X84.603 Y100.870 E9.43277
G1 X78.423 Y94.690 E9.90043
G1 X79.459 Y94.967 E9.95782
G1 X84.603 Y100.111 E10.34708
G1 X84.603 Y99.353 E10.38766
G1 X80.199 Y94.949 E10.72093
G1 X80.797 Y94.789 E10.75406
G1 X84.603 Y98.595 E11.04207
G1 X84.603 Y97.836 E11.08264
G1 X81.328 Y94.561 E11.33048
G1 X81.707 Y94.182 E11.35917
G1 X84.603 Y97.078 E11.57831
G1 X84.603 Y96.320 E11.61889
G1 X82.086 Y93.803 E11.80934
G1 X82.340 Y93.299 E11.83955
G1 X84.603 Y95.561 E12.01078
G1 X84.603 Y94.803 E12.05135
G1 X82.501 Y92.700 E12.21045
G1 X82.572 Y92.014 E12.24740
G1 X84.603 Y94.045 E12.40108
G1 X84.603 Y93.286 E12.44166
G1 X82.294 Y90.978 E12.61635
G1 X81.041 Y89.724 F15000.000
G1 X74.986 Y83.669 F864.000 E13.07448
G1 X74.986 Y82.911 E13.11505
G1 X84.603 Y92.528 E13.84275
G1 X84.603 Y91.769 E13.88333
G1 X74.986 Y82.153 E14.61103
G1 X74.986 Y81.394 E14.65161
G1 X84.603 Y91.011 E15.37931
G1 X84.603 Y90.253 E15.41989
G1 X74.986 Y80.636 E16.14758
G1 X74.986 Y79.878 E16.18816
G1 X84.603 Y89.494 E16.91586
G1 X84.603 Y88.736 E16.95644
G1 X74.986 Y79.119 E17.68414
G1 X74.986 Y78.361 E17.72472
G1 X84.603 Y87.978 E18.45242
G1 X84.603 Y87.219 E18.49299
G1 X74.986 Y77.603 E19.22069
G1 X74.986 Y76.844 E19.26127
G1 X75.862 Y77.720 E19.32753
G1 X75.584 Y76.684 E19.38491
G1 X75.178 Y76.277 E19.41569
G1 F2220.000 E17.66569
G1 Z1.300 F15000.000
G92 E0
G1 X76.158 Y76.153
G1 X76.681 Y78.103
G1 X79.693 Y79.842
G1 X78.298 Y80.156
G1 Z0.300
G1 F2220.000 E1.75000
G1 X84.603 Y86.461 F864.000 E2.22707
G1 X84.603 Y85.703 E2.26765
G1 X79.334 Y80.434 E2.66632
G1 X80.152 Y80.493 E2.71020
G1 X84.603 Y84.944 E3.04699
G1 X84.603 Y84.186 E3.08757
G1 X80.862 Y80.445 E3.37066
G1 X81.572 Y80.396 E3.40872
G1 X84.603 Y83.427 E3.63811
G1 X84.603 Y82.669 E3.67869
G1 X82.281 Y80.347 E3.85438
G1 X82.990 Y80.298 E3.89241
G1 X84.603 Y81.911 E4.01445
G1 X84.603 Y81.152 E4.05502
G1 X83.618 Y80.167 E4.12958
G1 X84.245 Y80.036 E4.16388
G1 X84.603 Y80.394 E4.19095
G1 F2220.000 E2.44095
G1 Z1.300 F15000.000
G92 E0
G1 X85.294 Y79.069
G1 X79.645 Y90.066
G1 X80.005 Y89.446
G1 Z0.300
G1 F2220.000 E1.75000
G1 X74.986 Y84.428 F864.000 E2.12974
G1 X74.986 Y85.186 E2.17032
G1 X79.318 Y89.518 E2.49807
G1 X78.719 Y89.678 E2.53121
G1 X74.986 Y85.945 E2.81370
G1 X74.986 Y86.703 E2.85428
G1 X78.215 Y89.932 E3.09862
G1 X77.836 Y90.311 E3.12732
G1 X74.986 Y87.461 E3.34297
G1 X74.986 Y88.220 E3.38355
G1 X77.457 Y90.690 E3.57050
G1 X77.230 Y91.221 E3.60141
G1 X74.986 Y88.978 E3.77116
G1 X74.986 Y89.736 E3.81173
G1 X77.069 Y91.819 E3.96936
G1 X77.051 Y92.559 E4.00897
G1 X74.986 Y90.495 E4.16520
G1 X74.986 Y91.253 E4.20578
G1 X77.329 Y93.595 E4.38303
G1 F2220.000 E2.63303
G1 Z1.300 F15000.000
G92 E0
G1 X77.488 Y92.224
G1 X76.568 Y109.723
G1 X77.487 Y124.224
G1 X77.040 Y124.519
G1 Z0.300
G1 F2220.000 E1.75000
G1 X76.994 Y124.472 F360.000 E1.75166
G1 X76.991 Y124.112 E1.76076
G1 X76.935 Y124.055 E1.76277
G1 X77.067 Y123.829 E1.76937
G1 X76.877 Y123.639 E1.77615
G1 X77.042 Y123.446 E1.78255
G1 X77.143 Y123.547 E1.78616
G1 F2220.000 E0.03616
G1 Z1.300 F15000.000
G92 E0
G1 X77.487 Y124.224
G1 X79.645 Y122.066
G1 X80.069 Y122.180
G1 X82.100 Y124.225
G1 X82.530 Y124.638
G1 Z0.300
G1 F2220.000 E1.75000
G1 X82.520 Y124.627 F360.000 E1.75036
G1 X82.611 Y124.361 E1.75748
G1 X82.595 Y124.345 E1.75805
G1 X82.655 Y124.047 E1.76573
G1 X82.553 Y123.945 E1.76938
G1 X82.699 Y123.733 E1.77589
G1 X82.422 Y123.456 E1.78578
G1 F2220.000 E0.03578
G1 Z1.300 F15000.000
G92 E0
G1 X82.100 Y124.225
G1 X82.981 Y109.794
G1 X82.519 Y108.070
G1 X77.488 Y92.224
G1 X76.158 Y76.153
G1 X75.218 Y76.318
G1 Z0.300
G1 F2220.000 E1.75000
G1 X75.166 Y76.265 F360.000 E1.75396
G1 X75.545 Y75.886 F15000.000
G1 X75.008 Y75.349 F864.000 E1.79451
G1 X75.707 Y75.290 E1.83198
G1 X75.028 Y74.611 E1.88326
G1 X75.048 Y73.873 E1.92273
G1 X75.869 Y74.693 E1.98474
G1 X76.031 Y74.097 E2.01777
G1 X75.068 Y73.135 E2.09050
G1 X75.089 Y72.396 E2.12997
G1 X76.395 Y73.703 E2.22873
G1 X76.774 Y73.324 E2.25739
G1 X75.109 Y71.658 E2.38330
G1 X75.129 Y70.920 E2.42277
G1 X77.154 Y72.945 E2.57582
G1 X77.533 Y72.565 E2.60447
G1 X75.149 Y70.181 E2.78466
G1 X75.169 Y69.443 E2.82413
G1 X78.076 Y72.350 E3.04387
G1 X78.674 Y72.190 E3.07696
G1 X75.189 Y68.705 E3.34038
G1 X75.209 Y67.967 E3.37985
G1 X79.272 Y72.030 E3.68696
G1 X79.919 Y71.918 E3.72203
G1 X75.229 Y67.228 E4.07648
G1 X75.249 Y66.490 E4.11595
G1 X80.620 Y71.861 E4.52191
G1 X81.322 Y71.804 E4.55952
G1 X75.269 Y65.752 E5.01698
G1 X75.289 Y65.013 E5.05645
G1 X82.023 Y71.747 E5.56541
