; generated by Slic3r 0.9.9 on 2013-07-03 at 22:10:35

; H-PLA-03-025-1

; layer_height = 0.25
; perimeters = 2
; top_solid_layers = 4
; bottom_solid_layers = 3
; fill_density = 0.2
; perimeter_speed = 20
; infill_speed = 32
; travel_speed = 250
; nozzle_diameter = 0.3
; filament_diameter = 1.75
; extrusion_multiplier = 1
; perimeters extrusion width = 0.32mm
; infill extrusion width = 0.32mm
; solid infill extrusion width = 0.32mm
; top infill extrusion width = 0.32mm
; support material extrusion width = 0.16mm
; first layer extrusion width = 0.63mm

G21 ; set units to millimeters
M107
M190 S57 ; wait for bed temperature to be reached
M104 S200 ; set temperature
G28
G1 Z0.25 F200
G1 X15 Y20 F12000
M109 S200 ; wait for temperature to be reached
G90 ; use absolute coordinates
G92 E0
M82 ; use absolute distances for extrusion
G1 F2220.000 E-1.75000
G1 Z1.250
G92 E0
G1 X48.705 Y53.820 F15000.000
G1 Z0.250
G1 F2220.000 E1.75000
G1 X49.355 Y53.270 F600.000 E1.80056
G1 X49.835 Y52.950 E1.83482
G1 X55.255 Y49.960 E2.20242
G1 X55.745 Y49.710 E2.23508
G1 X55.995 Y49.600 E2.25130
G1 X56.515 Y49.420 E2.28398
G1 X57.315 Y49.230 E2.33281
G1 X57.855 Y49.160 E2.36515
G1 X58.675 Y49.140 E2.41386
G1 X59.225 Y49.190 E2.44665
G1 X61.645 Y49.580 E2.59222
G1 X99.825 Y56.040 E4.89176
G1 X100.095 Y56.090 E4.90807
G1 X100.625 Y56.230 E4.94062
G1 X101.145 Y56.410 E4.97330
G1 X101.655 Y56.640 E5.00652
G1 X102.375 Y57.050 E5.05573
G1 X103.025 Y57.550 E5.10442
G1 X103.435 Y57.930 E5.13762
G1 X120.205 Y75.140 E6.56461
G1 X120.595 Y75.580 E6.59953
G1 X121.105 Y76.300 E6.65192
G1 X121.385 Y76.820 E6.68700
G1 X123.875 Y81.870 E7.02136
G1 X124.075 Y82.380 E7.05390
G1 X124.235 Y82.900 E7.08620
G1 X124.345 Y83.440 E7.11893
G1 X124.415 Y83.980 E7.15127
G1 X124.435 Y84.260 E7.16794
G1 X124.435 Y84.810 E7.20060
G1 X124.385 Y85.350 E7.23280
G1 X123.455 Y90.890 E7.56640
G1 X123.345 Y91.430 E7.59913
G1 X123.185 Y91.960 E7.63200
G1 X122.865 Y92.720 E7.68097
G1 X122.455 Y93.430 E7.72966
G1 X122.125 Y93.880 E7.76280
G1 X121.775 Y94.290 E7.79481
G1 X117.545 Y98.440 E8.14672
G1 X117.085 Y98.810 E8.18177
G1 X116.605 Y99.140 E8.21637
G1 X116.085 Y99.430 E8.25172
G1 X94.345 Y110.280 E9.69460
G1 X93.575 Y110.570 E9.74347
G1 X92.775 Y110.760 E9.79230
G1 X92.495 Y110.800 E9.80909
G1 X92.225 Y110.830 E9.82523
G1 X91.675 Y110.850 E9.85791
G1 X91.125 Y110.830 E9.89059
G1 X90.585 Y110.760 E9.92293
G1 X88.435 Y110.410 E10.05229
G1 X50.255 Y103.950 E12.35183
G1 X49.985 Y103.900 E12.36813
G1 X49.455 Y103.760 E12.40069
G1 X48.935 Y103.580 E12.43336
G1 X48.425 Y103.350 E12.46659
G1 X47.705 Y102.940 E12.51579
G1 X47.045 Y102.430 E12.56532
G1 X46.645 Y102.060 E12.59768
G1 X42.345 Y97.250 E12.98082
G1 X42.005 Y96.790 E13.01479
G1 X41.695 Y96.300 E13.04922
G1 X41.325 Y95.530 E13.09996
G1 X41.135 Y94.990 E13.13395
G1 X36.055 Y78.300 E14.16998
G1 X35.935 Y77.840 E14.19821
G1 X35.655 Y76.550 E14.27660
G1 X35.575 Y75.890 E14.31608
G1 X35.555 Y75.220 E14.35589
G1 X35.605 Y73.880 E14.43552
G1 X35.645 Y73.530 E14.45644
G1 X35.775 Y72.850 E14.49755
G1 X36.155 Y71.560 E14.57741
G1 X36.395 Y70.900 E14.61912
G1 X36.705 Y70.270 E14.66081
G1 X36.885 Y69.970 E14.68159
G1 X37.415 Y69.130 E14.74057
G1 X37.665 Y68.770 E14.76660
G1 X47.945 Y54.690 E15.80188
G1 X48.305 Y54.240 E15.83611
G1 X48.645 Y53.881 E15.86546
G1 F2220.000 E14.11546
G1 Z1.250
G92 E0
G1 X47.136 Y69.262 F15000.000
G1 Z0.250
G1 F2220.000 E1.75000
G1 X47.135 Y69.262 F1200.000 E1.75004
G1 F2220.000 E0.00004
G1 Z1.250
G92 E0
G1 X47.267 Y70.038 F15000.000
G1 X46.979 Y71.738
G1 X45.536 Y80.273
G1 X45.078 Y81.431
G1 Z0.250
G1 F2220.000 E1.75000
G1 X45.077 Y81.431 F1200.000 E1.75004
G1 F2220.000 E0.00004
G1 Z1.250
G92 E0
G1 X45.536 Y80.273 F15000.000
G1 X50.091 Y81.043
G1 X81.545 Y94.614
G1 X81.409 Y95.422
G1 X80.965 Y96.493
G1 Z0.250
G1 F2220.000 E1.75000
G1 X80.965 Y96.493 F1200.000 E1.75004
G1 X81.820 Y95.130 F15000.000
G1 X81.957 Y94.321 F600.000 E1.79874
G1 X58.558 Y90.364 E3.20801
G1 X57.944 Y93.992 E3.42654
G1 X54.895 Y93.476 E3.61021
G1 X54.452 Y96.093 E3.76779
G1 X53.277 Y96.928 E3.85341
G1 X51.856 Y96.688 E3.93902
G1 X51.021 Y95.512 E4.02463
G1 X51.463 Y92.896 E4.18222
G1 X48.414 Y92.380 E4.36588
G1 X49.416 Y86.455 E4.72276
G1 X48.094 Y86.048 E4.80487
G1 X47.655 Y85.773 E4.83566
G1 X47.303 Y85.393 E4.86644
G1 X47.060 Y84.935 E4.89722
G1 X46.944 Y84.430 E4.92800
G1 X46.963 Y83.912 E4.95878
G1 X47.116 Y83.416 E4.98956
G1 X47.391 Y82.977 E5.02034
G1 X47.771 Y82.624 E5.05113
G1 X48.229 Y82.382 E5.08191
G1 X49.527 Y82.084 E5.16099
G1 X49.484 Y80.578 E5.25047
G1 X45.947 Y79.980 E5.46346
G1 X46.245 Y78.221 E5.56944
G1 X44.686 Y77.741 E5.66628
G1 X44.037 Y77.334 E5.71179
G1 X43.515 Y76.773 E5.75730
G1 X43.157 Y76.095 E5.80281
G1 X42.986 Y75.348 E5.84832
G1 X43.014 Y74.582 E5.89383
G1 X43.239 Y73.850 E5.93934
G1 X43.646 Y73.201 E5.98484
G1 X44.208 Y72.679 E6.03035
G1 X44.885 Y72.321 E6.07586
G1 X45.632 Y72.149 E6.12137
G1 X47.262 Y72.209 E6.21821
G1 X47.559 Y70.450 E6.32419
G1 X51.096 Y71.048 E6.53718
G1 X51.632 Y69.640 E6.62666
G1 X50.504 Y68.932 E6.70575
G1 X50.151 Y68.552 E6.73653
G1 X49.908 Y68.094 E6.76731
G1 X49.793 Y67.589 E6.79809
G1 X49.812 Y67.071 E6.82887
G1 X49.964 Y66.575 E6.85965
G1 X50.240 Y66.136 E6.89044
G1 X50.619 Y65.784 E6.92122
G1 X51.077 Y65.541 E6.95200
G1 X51.583 Y65.425 E6.98278
G1 X52.964 Y65.476 E7.06489
G1 X53.967 Y59.551 E7.42177
G1 X57.016 Y60.066 E7.60543
G1 X57.459 Y57.450 E7.76302
G1 X58.634 Y56.615 E7.84863
G1 X60.055 Y56.855 E7.93425
G1 X60.890 Y58.030 E8.01986
G1 X60.448 Y60.647 E8.17745
G1 X63.497 Y61.163 E8.36111
G1 X62.883 Y64.791 E8.57965
G1 X91.531 Y69.636 E10.30502
G1 X92.144 Y66.008 E10.52355
G1 X95.194 Y66.524 E10.70722
G1 X95.636 Y63.907 E10.86480
G1 X96.811 Y63.072 E10.95042
G1 X98.233 Y63.312 E11.03603
G1 X99.068 Y64.488 E11.12164
G1 X98.626 Y67.104 E11.27923
G1 X101.675 Y67.620 E11.46289
G1 X100.200 Y76.343 E11.98827
G1 X110.477 Y78.081 E12.60726
G1 X114.852 Y80.368 E12.90042
G1 X116.983 Y84.662 E13.18512
G1 X116.184 Y89.389 E13.46981
G1 X112.759 Y92.743 E13.75450
G1 X107.875 Y93.465 E14.04767
G1 X97.598 Y91.726 E14.66665
G1 X96.122 Y100.449 E15.19206
G1 X93.073 Y99.934 E15.37572
G1 X92.630 Y102.550 E15.53331
G1 X91.455 Y103.385 E15.61892
G1 X90.034 Y103.145 E15.70454
G1 X89.199 Y101.970 E15.79015
G1 X89.641 Y99.353 E15.94774
G1 X86.592 Y98.837 E16.13140
G1 X87.069 Y96.018 E16.30124
G1 X81.905 Y95.144 E16.61225
G1 X81.298 Y94.789 F15000.000
G1 X59.026 Y91.022 F600.000 E17.95366
G1 X58.413 Y94.651 E18.17220
G1 X55.363 Y94.135 E18.35586
G1 X54.976 Y96.422 E18.49357
G1 X53.415 Y97.531 E18.60730
G1 X51.527 Y97.211 E18.72102
G1 X50.418 Y95.651 E18.83474
G1 X50.805 Y93.364 E18.97245
G1 X47.755 Y92.848 E19.15611
G1 X48.769 Y86.854 E19.51716
G1 X47.855 Y86.572 E19.57399
G1 X47.288 Y86.217 E19.61370
G1 X46.833 Y85.727 E19.65342
G1 X46.520 Y85.136 E19.69314
G1 X46.371 Y84.484 E19.73285
G1 X46.395 Y83.816 E19.77257
G1 X46.592 Y83.176 E19.81228
G1 X46.947 Y82.610 E19.85200
G1 X47.437 Y82.155 E19.89171
G1 X48.028 Y81.842 E19.93143
G1 X48.942 Y81.632 E19.98714
G1 X48.926 Y81.063 E20.02092
G1 X45.289 Y80.448 E20.24000
G1 X45.598 Y78.619 E20.35015
G1 X44.446 Y78.265 E20.42170
G1 X43.670 Y77.778 E20.47615
G1 X43.046 Y77.106 E20.53059
G1 X42.617 Y76.296 E20.58503
G1 X42.412 Y75.402 E20.63947
G1 X42.446 Y74.486 E20.69392
G1 X42.715 Y73.610 E20.74836
G1 X43.202 Y72.833 E20.80280
G1 X43.874 Y72.209 E20.85725
G1 X44.684 Y71.780 E20.91169
G1 X45.578 Y71.576 E20.96613
G1 X46.782 Y71.620 E21.03769
G1 X47.091 Y69.791 E21.14784
G1 X50.729 Y70.406 E21.36691
G1 X50.931 Y69.874 E21.40070
G1 X50.136 Y69.376 E21.45641
G1 X49.681 Y68.886 E21.49612
G1 X49.368 Y68.295 E21.53584
G1 X49.219 Y67.643 E21.57555
G1 X49.243 Y66.975 E21.61527
G1 X49.440 Y66.336 E21.65498
G1 X49.795 Y65.769 E21.69470
G1 X50.285 Y65.314 E21.73441
G1 X50.876 Y65.001 E21.77413
G1 X51.528 Y64.852 E21.81384
G1 X52.485 Y64.887 E21.87067
G1 X53.499 Y58.892 E22.23172
G1 X56.548 Y59.408 E22.41539
G1 X56.935 Y57.121 E22.55310
G1 X58.496 Y56.012 E22.66682
G1 X60.384 Y56.331 E22.78054
G1 X61.493 Y57.892 E22.89426
G1 X61.106 Y60.179 E23.03197
G1 X64.156 Y60.694 E23.21563
G1 X63.542 Y64.323 E23.43417
G1 X91.063 Y68.978 E25.09168
G1 X91.676 Y65.349 E25.31022
G1 X94.726 Y65.865 E25.49388
G1 X95.112 Y63.578 E25.63159
G1 X96.673 Y62.469 E25.74531
G1 X98.562 Y62.788 E25.85904
G1 X99.671 Y64.349 E25.97276
G1 X99.284 Y66.636 E26.11047
G1 X102.334 Y67.152 E26.29413
G1 X100.858 Y75.875 E26.81951
G1 X110.661 Y77.533 E27.40994
G1 X115.281 Y79.948 E27.71951
G1 X117.578 Y84.575 E28.02625
G1 X116.716 Y89.668 E28.33299
G1 X113.026 Y93.282 E28.63973
G1 X107.869 Y94.043 E28.94929
G1 X98.066 Y92.384 E29.53972
G1 X96.590 Y101.108 E30.06513
G1 X93.541 Y100.592 E30.24879
G1 X93.154 Y102.879 E30.38651
G1 X91.593 Y103.988 E30.50023
G1 X89.705 Y103.669 E30.61395
G1 X88.596 Y102.108 E30.72767
G1 X88.982 Y99.821 E30.86538
G1 X85.933 Y99.306 E31.04904
G1 X86.410 Y96.486 E31.21888
G1 X81.162 Y95.598 E31.53498
G1 X81.284 Y94.874 E31.57859
G1 X81.394 Y94.226 F15000.000
G1 X82.088 Y93.923
G1 X53.421 Y65.257 F960.000 E33.99034
G1 X53.256 Y65.901 E34.02989
G1 X81.113 Y93.759 E36.37361
G1 X80.139 Y93.594 E36.43239
G1 X52.415 Y65.870 E38.76485
G1 X51.585 Y65.849 E38.81425
G1 X79.165 Y93.429 E41.13458
G1 X78.191 Y93.264 E41.19336
G1 X50.985 Y66.058 E43.48225
G1 X50.545 Y66.428 E43.51642
G1 X77.216 Y93.100 E45.76033
G1 X76.242 Y92.935 E45.81911
G1 X50.276 Y66.969 E48.00368
G1 X50.256 Y67.758 E48.05066
G1 X51.677 Y69.179 E48.17022
G1 X52.092 Y69.594 F15000.000
G1 X75.268 Y92.770 F960.000 E50.12004
G1 X74.294 Y92.605 E50.17882
G1 X51.869 Y70.180 E52.06546
G1 X51.646 Y70.767 E52.10278
G1 X73.320 Y92.440 E53.92624
G1 X72.345 Y92.276 E53.98502
G1 X51.423 Y71.353 E55.74530
G1 X50.653 Y71.393 E55.79113
G1 X71.371 Y92.111 E57.53418
G1 X70.397 Y91.946 E57.59296
G1 X49.679 Y71.228 E59.33601
G1 X48.705 Y71.063 E59.39479
G1 X69.423 Y91.781 E61.13784
G1 X68.448 Y91.617 E61.19662
G1 X47.878 Y71.046 E62.92723
G1 X47.761 Y71.739 E62.96900
G1 X67.474 Y91.452 E64.62750
G1 X66.500 Y91.287 E64.68628
G1 X47.644 Y72.431 E66.27267
G1 X47.018 Y72.615 E66.31147
G1 X65.526 Y91.122 E67.86855
G1 X64.552 Y90.957 E67.92734
G1 X46.178 Y72.584 E69.47315
G1 X45.410 Y72.625 E69.51891
G1 X63.577 Y90.793 E71.04738
G1 X62.603 Y90.628 E71.10616
G1 X44.806 Y72.831 E72.60346
G1 X44.313 Y73.147 E72.63832
G1 X61.629 Y90.463 E74.09517
G1 X60.655 Y90.298 E74.15395
G1 X43.912 Y73.556 E75.56252
G1 X43.608 Y74.061 E75.59759
G1 X49.750 Y80.203 E76.11440
G1 X49.891 Y80.344 F15000.000
G1 X59.680 Y90.134 F960.000 E76.93799
G1 X58.706 Y89.969 E76.99677
G1 X49.915 Y81.178 E77.73638
G1 X49.939 Y82.011 E77.78598
G1 X58.160 Y90.232 E78.47765
G1 X58.043 Y90.925 E78.51942
G1 X49.609 Y82.491 E79.22901
G1 X48.950 Y82.641 E79.26921
G1 X57.926 Y91.617 E80.02436
G1 X57.809 Y92.309 E80.06613
G1 X48.308 Y82.808 E80.86547
G1 X47.827 Y83.137 E80.90011
G1 X57.692 Y93.002 E81.73005
G1 X57.353 Y93.472 E81.76454
G1 X47.490 Y83.609 E82.59436
G1 X47.364 Y84.292 E82.63570
G1 X48.949 Y85.878 E82.76910
G1 X49.791 Y86.720 F15000.000
G1 X56.379 Y93.307 F960.000 E83.32332
G1 X55.404 Y93.143 E83.38210
G1 X49.674 Y87.412 E83.86420
G1 X49.557 Y88.105 E83.90598
G1 X54.541 Y93.088 E84.32526
G1 X54.424 Y93.781 E84.36704
G1 X49.440 Y88.797 E84.78632
G1 F2220.000 E83.03632
G1 Z1.250
G92 E0
G1 X48.994 Y86.807 F15000.000
G1 X50.091 Y81.043
G1 X48.002 Y92.673
G1 X49.559 Y92.154
G1 Z0.250
G1 F2220.000 E1.75000
G1 X48.972 Y91.566 F960.000 E1.79944
G1 X49.089 Y90.874 E1.84121
G1 X50.533 Y92.319 E1.96276
G1 X51.508 Y92.483 E2.02154
G1 X49.206 Y90.182 E2.21519
G1 X49.323 Y89.489 E2.25697
G1 X54.306 Y94.473 E2.67625
G1 X54.189 Y95.165 E2.71803
G1 X51.889 Y92.865 E2.91159
G1 X51.772 Y93.557 E2.95337
G1 X54.071 Y95.856 E3.14681
G1 X53.598 Y96.192 E3.18134
G1 X51.654 Y94.249 E3.34483
G1 X51.537 Y94.942 E3.38660
G1 X53.068 Y96.473 E3.51542
G1 X52.094 Y96.308 E3.57420
G1 F2220.000 E1.82420
G1 Z1.250
G92 E0
G1 X51.651 Y97.015 F15000.000
G1 X50.091 Y81.043
G1 X48.776 Y80.039
G1 Z0.250
G1 F2220.000 E1.75000
G1 X46.707 Y77.970 F960.000 E1.92406
G1 X46.649 Y77.912 F15000.000
G1 X43.424 Y74.687 F960.000 E2.19537
G1 X43.450 Y75.522 E2.24510
G1 X45.480 Y77.552 E2.41586
G1 X46.590 Y78.662 F15000.000
G1 X47.802 Y79.874 F960.000 E2.51781
G1 X46.828 Y79.709 E2.57659
G1 X46.473 Y79.355 E2.60642
G1 F2220.000 E0.85642
G1 Z1.250
G92 E0
G1 X45.823 Y78.573 F15000.000
G1 X63.295 Y64.498
G1 X63.130 Y65.253
G1 Z0.250
G1 F2220.000 E1.75000
G1 X96.082 Y98.204 F960.000 E4.52230
G1 X96.199 Y97.512 E4.56408
G1 X64.104 Y65.417 E7.26427
G1 X65.079 Y65.582 E7.32305
G1 X96.316 Y96.820 E9.95113
G1 X96.433 Y96.127 E9.99290
G1 X66.053 Y65.747 E12.54887
G1 X67.027 Y65.912 E12.60765
G1 X96.550 Y95.435 E15.09150
G1 X96.667 Y94.743 E15.13327
G1 X68.001 Y66.077 E17.54502
G1 X68.976 Y66.241 E17.60380
G1 X96.785 Y94.050 E19.94343
G1 X96.902 Y93.358 E19.98521
G1 X69.950 Y66.406 E22.25273
G1 X70.924 Y66.571 E22.31151
G1 X97.019 Y92.666 E24.50692
G1 X97.136 Y91.973 E24.54869
G1 X71.898 Y66.736 E26.67199
G1 X72.872 Y66.900 E26.73077
G1 X97.253 Y91.281 E28.78195
G1 X98.187 Y91.406 E28.83801
G1 X73.847 Y67.065 E30.88581
G1 X74.821 Y67.230 E30.94459
G1 X99.161 Y91.570 E32.99239
G1 X100.136 Y91.735 E33.05118
G1 X75.795 Y67.395 E35.09899
G1 X76.769 Y67.560 E35.15777
G1 X101.110 Y91.900 E37.20558
G1 X102.084 Y92.065 E37.26437
G1 X77.744 Y67.724 E39.31219
G1 X78.718 Y67.889 E39.37097
G1 X103.058 Y92.230 E41.41880
G1 X104.033 Y92.395 E41.47758
G1 X79.692 Y68.054 E43.52541
G1 X80.666 Y68.219 E43.58419
G1 X105.007 Y92.559 E45.63203
G1 X105.981 Y92.724 E45.69081
G1 X81.640 Y68.383 E47.73866
G1 X82.615 Y68.548 E47.79744
G1 X106.956 Y92.889 E49.84528
G1 X107.916 Y93.040 E49.90312
G1 X83.589 Y68.713 E51.94980
G1 X84.563 Y68.878 E52.00858
G1 X108.621 Y92.936 E54.03263
G1 X109.326 Y92.832 E54.07505
G1 X85.537 Y69.043 E56.07648
G1 X86.512 Y69.207 E56.13526
G1 X110.032 Y92.728 E58.11406
G1 X110.737 Y92.623 E58.15648
G1 X87.486 Y69.372 E60.11266
G1 X88.460 Y69.537 E60.17144
G1 X111.442 Y92.519 E62.10499
G1 X112.148 Y92.415 E62.14740
G1 X89.434 Y69.702 E64.05833
G1 X90.408 Y69.866 E64.11711
G1 X112.732 Y92.190 E65.99524
G1 X113.141 Y91.790 E66.02929
G1 X91.383 Y70.031 E67.85986
G1 X91.928 Y69.768 E67.89592
G1 X113.550 Y91.389 E69.71499
G1 X113.959 Y90.989 E69.74904
G1 X92.046 Y69.075 E71.59266
G1 X92.163 Y68.383 E71.63443
G1 X99.829 Y76.049 E72.27943
G1 X99.946 Y75.357 E72.32121
G1 X92.280 Y67.691 E72.96621
G1 X92.397 Y66.998 E73.00798
G1 X100.063 Y74.665 E73.65299
G1 X100.181 Y73.972 E73.69476
G1 X92.736 Y66.528 E74.32108
G1 X93.710 Y66.693 E74.37986
G1 X100.298 Y73.280 E74.93407
G1 X100.415 Y72.588 E74.97585
G1 X94.684 Y66.857 E75.45794
G1 X95.548 Y66.912 E75.50943
G1 X100.532 Y71.895 E75.92871
G1 X100.649 Y71.203 E75.97049
G1 X95.665 Y66.219 E76.38977
G1 X95.782 Y65.527 E76.43154
G1 X100.766 Y70.511 E76.85083
G1 X100.883 Y69.818 E76.89260
G1 X98.581 Y67.517 E77.08626
G1 X98.200 Y67.135 F15000.000
G1 X95.899 Y64.835 F960.000 E77.27982
G1 X96.018 Y64.144 E77.32152
G1 X98.317 Y66.443 E77.51496
G1 X98.434 Y65.751 E77.55673
G1 X96.491 Y63.808 E77.72022
G1 X97.020 Y63.527 E77.75584
G1 X98.552 Y65.058 E77.88465
G1 X97.995 Y63.692 E77.97243
G1 F2220.000 E76.22243
G1 Z1.250
G92 E0
G1 X98.438 Y62.985 F15000.000
G1 X99.037 Y66.812
G1 X99.556 Y67.681
G1 Z0.250
G1 F2220.000 E1.75000
G1 X101.000 Y69.126 F960.000 E1.87154
G1 X101.117 Y68.434 E1.91331
G1 X100.530 Y67.846 E1.96274
G1 F2220.000 E0.21274
G1 Z1.250
G92 E0
G1 X102.087 Y67.327 F15000.000
G1 X100.611 Y76.050
G1 X100.613 Y76.833
G1 Z0.250
G1 F2220.000 E1.75000
G1 X114.368 Y90.588 F960.000 E2.90727
G1 X114.777 Y90.188 E2.94132
G1 X101.587 Y76.998 E4.05103
G1 X102.561 Y77.162 E4.10981
G1 X115.186 Y89.787 E5.17196
G1 X115.595 Y89.387 E5.20601
G1 X103.535 Y77.327 E6.22061
G1 X104.509 Y77.492 E6.27939
G1 X115.857 Y88.839 E7.23408
G1 X115.974 Y88.147 E7.27585
G1 X105.484 Y77.657 E8.15843
G1 X106.458 Y77.821 E8.21721
G1 X116.091 Y87.455 E9.02768
G1 X116.208 Y86.762 E9.06945
G1 X107.432 Y77.986 E9.80781
G1 X108.406 Y78.151 E9.86659
G1 X116.325 Y86.070 E10.53283
G1 X116.442 Y85.378 E10.57460
