; generated by Slic3r 0.9.9 on 2013-07-03 at 22:13:00

; H-PLA-03-025-1

; layer_height = 0.25
; perimeters = 2
; top_solid_layers = 4
; bottom_solid_layers = 3
; fill_density = 0.2
; perimeter_speed = 20
; infill_speed = 32
; travel_speed = 250
; nozzle_diameter = 0.3
; filament_diameter = 1.75
; extrusion_multiplier = 1
; perimeters extrusion width = 0.32mm
; infill extrusion width = 0.32mm
; solid infill extrusion width = 0.32mm
; top infill extrusion width = 0.32mm
; support material extrusion width = 0.16mm
; first layer extrusion width = 0.63mm

G21 ; set units to millimeters
M107
M190 S57 ; wait for bed temperature to be reached
M104 S200 ; set temperature
G28
G1 Z0.25 F200
G1 X15 Y20 F12000
M109 S200 ; wait for temperature to be reached
G90 ; use absolute coordinates
G92 E0
M82 ; use absolute distances for extrusion
G1 F2220.000 E-1.75000
G1 Z1.250
G92 E0
G1 X62.013 Y64.585 F15000.000
G1 Z0.250
G1 F2220.000 E1.75000
G1 X62.463 Y64.185 F600.000 E1.78575
G1 X62.953 Y63.825 E1.82186
G1 X63.203 Y63.665 E1.83949
G1 X66.053 Y62.095 E2.03272
G1 X66.573 Y61.835 E2.06724
G1 X67.113 Y61.625 E2.10165
G1 X67.673 Y61.465 E2.13624
G1 X67.953 Y61.405 E2.15324
G1 X68.523 Y61.315 E2.18751
G1 X69.393 Y61.285 E2.23921
G1 X69.963 Y61.325 E2.27314
G1 X71.313 Y61.535 E2.35427
G1 X90.463 Y64.775 E3.50765
G1 X90.733 Y64.825 E3.52396
G1 X91.263 Y64.965 E3.55651
G1 X91.783 Y65.145 E3.58919
G1 X92.533 Y65.495 E3.63834
G1 X93.233 Y65.945 E3.68776
G1 X93.663 Y66.285 E3.72031
G1 X94.963 Y67.515 E3.82659
G1 X102.703 Y75.555 E4.48934
G1 X102.913 Y75.815 E4.50918
G1 X103.303 Y76.365 E4.54922
G1 X103.633 Y76.945 E4.58885
G1 X104.823 Y79.345 E4.74793
G1 X105.143 Y80.105 E4.79690
G1 X105.303 Y80.635 E4.82978
G1 X105.363 Y80.905 E4.84621
G1 X105.453 Y81.445 E4.87872
G1 X105.503 Y81.995 E4.91151
G1 X105.503 Y82.555 E4.94477
G1 X105.453 Y83.105 E4.97756
G1 X104.903 Y86.295 E5.16980
G1 X104.663 Y87.135 E5.22168
G1 X104.433 Y87.675 E5.25653
G1 X104.163 Y88.195 E5.29133
G1 X103.853 Y88.685 E5.32576
G1 X103.673 Y88.925 E5.34358
G1 X103.093 Y89.575 E5.39531
G1 X100.963 Y91.665 E5.57252
G1 X100.513 Y92.035 E5.60712
G1 X100.023 Y92.365 E5.64220
G1 X99.503 Y92.655 E5.67756
G1 X88.493 Y98.145 E6.40816
G1 X87.673 Y98.445 E6.46001
G1 X87.103 Y98.585 E6.49487
G1 X86.813 Y98.635 E6.51234
G1 X86.233 Y98.695 E6.54697
G1 X85.653 Y98.705 E6.58142
G1 X85.363 Y98.695 E6.59865
G1 X84.783 Y98.625 E6.63334
G1 X64.573 Y95.215 E7.85048
G1 X64.303 Y95.165 E7.86678
G1 X63.763 Y95.025 E7.89991
G1 X63.243 Y94.845 E7.93259
G1 X62.733 Y94.615 E7.96581
G1 X62.493 Y94.485 E7.98202
G1 X62.023 Y94.195 E8.01482
G1 X61.353 Y93.695 E8.06446
G1 X60.763 Y93.105 E8.11401
G1 X58.623 Y90.685 E8.30586
G1 X58.113 Y89.985 E8.35729
G1 X57.833 Y89.475 E8.39184
G1 X57.503 Y88.685 E8.44268
G1 X54.633 Y80.365 E8.96533
G1 X54.493 Y79.815 E8.99904
G1 X54.443 Y79.535 E9.01593
G1 X54.333 Y78.665 E9.06800
G1 X54.293 Y78.055 E9.10431
G1 X54.303 Y77.435 E9.14113
G1 X54.333 Y77.125 E9.15962
G1 X54.433 Y76.525 E9.19575
G1 X54.843 Y74.645 E9.31001
G1 X55.013 Y74.085 E9.34477
G1 X55.123 Y73.815 E9.36208
G1 X55.513 Y73.025 E9.41440
G1 X55.823 Y72.525 E9.44934
G1 X61.423 Y65.265 E9.99383
G1 X61.953 Y64.647 E10.04221
G1 F2220.000 E8.29221
G1 Z1.250
G92 E0
G1 X65.200 Y72.158 F15000.000
G1 Z0.250
G1 F2220.000 E1.75000
G1 X65.200 Y72.158 F1200.000 E1.75003
G1 X64.433 Y72.898 F15000.000
G1 X64.433 Y72.898 F1200.000 E1.75005
G1 X64.290 Y74.158 F15000.000
G1 X64.289 Y74.158 F1200.000 E1.75007
G1 F2220.000 E0.00007
G1 Z1.250
G92 E0
G1 X65.098 Y73.637 F15000.000
G1 X65.966 Y75.667
G1 X62.167 Y76.428
G1 X62.042 Y75.562
G1 Z0.250
G1 F2220.000 E1.75000
G1 X62.041 Y75.562 F1200.000 E1.75003
G1 X61.211 Y76.311 F15000.000
G1 X61.211 Y76.311 F1200.000 E1.75005
G1 X60.856 Y77.904 F15000.000
G1 X60.855 Y77.904 F1200.000 E1.75007
G1 X60.930 Y78.485 F15000.000
G1 X60.931 Y78.485 F1200.000 E1.75009
G1 F2220.000 E0.00009
G1 Z1.250
G92 E0
G1 X61.847 Y78.323 F15000.000
G1 X65.184 Y80.291
G1 X63.697 Y81.923
G1 X62.885 Y81.515
G1 Z0.250
G1 F2220.000 E1.75000
G1 X62.886 Y81.515 F1200.000 E1.75003
G1 X62.865 Y82.834 F15000.000
G1 X62.865 Y82.834 F1200.000 E1.75005
G1 X63.420 Y83.691 F15000.000
G1 X63.420 Y83.691 F1200.000 E1.75007
G1 F2220.000 E0.00007
G1 Z1.250
G92 E0
G1 X64.750 Y83.406 F15000.000
G1 X80.606 Y87.025
G1 X80.540 Y88.625
G1 Z0.250
G1 F2220.000 E1.75000
G1 X80.541 Y88.625 F1200.000 E1.75004
G1 F2220.000 E0.00004
G1 Z1.250
G92 E0
G1 X80.606 Y87.025 F15000.000
G1 X88.950 Y71.701
G1 X90.241 Y72.079
G1 Z0.250
G1 F2220.000 E1.75000
G1 X90.242 Y72.079 F1200.000 E1.75001
G1 X89.082 Y72.347 F15000.000
G1 X88.819 Y73.903 F600.000 E1.84371
G1 X90.344 Y74.161 E1.93555
G1 X89.606 Y78.523 E2.19823
G1 X95.100 Y79.452 E2.52914
G1 X97.104 Y80.499 E2.66343
G1 X98.046 Y82.397 E2.78924
G1 X97.693 Y84.486 E2.91505
G1 X96.179 Y85.968 E3.04086
G1 X93.942 Y86.298 E3.17514
G1 X88.448 Y85.369 E3.50605
G1 X87.710 Y89.731 E3.76876
G1 X86.185 Y89.473 E3.86059
G1 X85.922 Y91.029 E3.95429
G1 X85.624 Y91.241 E3.97601
G1 X85.263 Y91.180 E3.99774
G1 X85.051 Y90.881 E4.01947
G1 X85.315 Y89.326 E4.11317
G1 X83.790 Y89.068 E4.20500
G1 X84.028 Y87.658 E4.28992
G1 X81.404 Y87.214 E4.44797
G1 X81.472 Y86.810 E4.47232
G1 X68.928 Y84.688 E5.22784
G1 X68.621 Y86.502 E5.33711
G1 X67.096 Y86.244 E5.42894
G1 X66.833 Y87.800 E5.52264
G1 X66.535 Y88.012 E5.54437
G1 X66.174 Y87.951 E5.56609
G1 X65.962 Y87.653 E5.58782
G1 X66.226 Y86.097 E5.68152
G1 X64.701 Y85.839 E5.77335
G1 X65.193 Y82.928 E5.94866
G1 X64.227 Y82.631 E6.00868
G1 X64.103 Y82.553 E6.01737
G1 X64.004 Y82.446 E6.02606
G1 X63.935 Y82.317 E6.03476
G1 X63.902 Y82.174 E6.04345
G1 X63.908 Y82.028 E6.05214
G1 X63.951 Y81.888 E6.06083
G1 X64.029 Y81.764 E6.06952
G1 X64.136 Y81.664 E6.07821
G1 X64.265 Y81.596 E6.08690
G1 X65.077 Y81.410 E6.13636
G1 X65.034 Y79.904 E6.22584
G1 X63.468 Y79.639 E6.32015
G1 X63.608 Y78.811 E6.37001
G1 X62.523 Y78.478 E6.43740
G1 X62.294 Y78.334 E6.45345
G1 X62.110 Y78.136 E6.46951
G1 X61.983 Y77.897 E6.48556
G1 X61.923 Y77.633 E6.50162
G1 X61.933 Y77.363 E6.51767
G1 X62.013 Y77.105 E6.53372
G1 X62.156 Y76.876 E6.54978
G1 X62.354 Y76.692 E6.56583
G1 X62.593 Y76.565 E6.58189
G1 X62.857 Y76.505 E6.59794
G1 X63.991 Y76.547 E6.66533
G1 X64.131 Y75.719 E6.71519
G1 X65.697 Y75.984 E6.80950
G1 X66.233 Y74.575 E6.89898
G1 X65.527 Y74.133 E6.94844
G1 X65.428 Y74.026 E6.95713
G1 X65.359 Y73.896 E6.96582
G1 X65.327 Y73.754 E6.97451
G1 X65.332 Y73.608 E6.98320
G1 X65.375 Y73.468 E6.99189
G1 X65.453 Y73.344 E7.00058
G1 X65.560 Y73.244 E7.00928
G1 X65.689 Y73.176 E7.01797
G1 X65.832 Y73.143 E7.02666
G1 X66.842 Y73.180 E7.08668
G1 X67.334 Y70.269 E7.26199
G1 X68.859 Y70.527 E7.35382
G1 X69.122 Y68.971 E7.44752
G1 X69.420 Y68.759 E7.46924
G1 X69.781 Y68.820 E7.49097
G1 X69.993 Y69.119 E7.51269
G1 X69.730 Y70.674 E7.60640
G1 X71.255 Y70.932 E7.69823
G1 X70.948 Y72.747 E7.80749
G1 X86.116 Y75.312 E8.72107
G1 X86.423 Y73.498 E8.83034
G1 X87.948 Y73.756 E8.92217
G1 X88.211 Y72.200 E9.01588
G1 X88.509 Y71.988 E9.03760
G1 X88.870 Y72.049 E9.05933
G1 X89.032 Y72.277 E9.07596
G1 X89.685 Y72.209 F15000.000
G1 X89.477 Y73.435 F600.000 E9.14979
G1 X91.002 Y73.693 E9.24162
G1 X90.264 Y78.054 E9.50431
G1 X95.285 Y78.904 E9.80666
G1 X97.533 Y80.079 E9.95734
G1 X98.640 Y82.309 E10.10520
G1 X98.225 Y84.764 E10.25306
G1 X96.446 Y86.506 E10.40092
G1 X93.936 Y86.877 E10.55160
G1 X88.916 Y86.028 E10.85396
G1 X88.178 Y90.389 E11.11666
G1 X86.653 Y90.132 E11.20849
G1 X86.446 Y91.357 E11.28232
G1 X85.762 Y91.843 E11.33215
G1 X84.935 Y91.703 E11.38198
G1 X84.449 Y91.019 E11.43182
G1 X84.656 Y89.794 E11.50564
G1 X83.131 Y89.536 E11.59747
G1 X83.370 Y88.126 E11.68239
G1 X80.745 Y87.682 E11.84044
G1 X80.814 Y87.278 E11.86479
G1 X69.396 Y85.347 E12.55246
G1 X69.089 Y87.161 E12.66173
G1 X67.565 Y86.903 E12.75356
G1 X67.357 Y88.129 E12.82739
G1 X66.673 Y88.615 E12.87722
G1 X65.846 Y88.475 E12.92705
G1 X65.360 Y87.791 E12.97689
G1 X65.567 Y86.565 E13.05071
G1 X64.042 Y86.307 E13.14254
G1 X64.546 Y83.327 E13.32202
G1 X63.987 Y83.155 E13.35676
G1 X63.736 Y82.997 E13.37438
G1 X63.534 Y82.780 E13.39201
G1 X63.395 Y82.518 E13.40963
G1 X63.329 Y82.228 E13.42726
G1 X63.340 Y81.932 E13.44488
G1 X63.427 Y81.648 E13.46250
G1 X63.585 Y81.397 E13.48013
G1 X63.802 Y81.195 E13.49775
G1 X64.064 Y81.056 E13.51538
G1 X64.492 Y80.958 E13.54146
G1 X64.476 Y80.389 E13.57525
G1 X62.809 Y80.107 E13.67565
G1 X62.961 Y79.210 E13.72968
G1 X62.283 Y79.002 E13.77178
G1 X61.927 Y78.778 E13.79677
G1 X61.640 Y78.470 E13.82176
G1 X61.443 Y78.098 E13.84674
G1 X61.349 Y77.688 E13.87173
G1 X61.365 Y77.267 E13.89672
G1 X61.489 Y76.865 E13.92171
G1 X61.712 Y76.509 E13.94669
G1 X62.020 Y76.222 E13.97168
G1 X62.392 Y76.025 E13.99667
G1 X62.802 Y75.931 E14.02166
G1 X63.511 Y75.957 E14.06376
G1 X63.663 Y75.060 E14.11779
G1 X65.330 Y75.342 E14.21819
G1 X65.532 Y74.810 E14.25198
G1 X65.160 Y74.577 E14.27806
G1 X64.958 Y74.360 E14.29568
G1 X64.819 Y74.097 E14.31331
G1 X64.753 Y73.808 E14.33093
G1 X64.764 Y73.511 E14.34856
G1 X64.851 Y73.228 E14.36618
G1 X65.009 Y72.976 E14.38381
G1 X65.226 Y72.774 E14.40143
G1 X65.488 Y72.635 E14.41905
G1 X65.778 Y72.569 E14.43668
G1 X66.362 Y72.591 E14.47141
G1 X66.866 Y69.611 E14.65090
G1 X68.391 Y69.868 E14.74273
G1 X68.598 Y68.643 E14.81655
G1 X69.282 Y68.157 E14.86639
G1 X70.110 Y68.297 E14.91622
G1 X70.596 Y68.981 E14.96605
G1 X70.389 Y70.206 E15.03988
G1 X71.913 Y70.464 E15.13171
G1 X71.606 Y72.278 E15.24098
G1 X85.648 Y74.653 E16.08670
G1 X85.955 Y72.839 E16.19597
G1 X87.480 Y73.097 E16.28780
G1 X87.687 Y71.871 E16.36162
G1 X88.371 Y71.385 E16.41146
G1 X89.199 Y71.525 E16.46129
G1 X89.635 Y72.139 E16.50603
G1 X89.219 Y72.540 F15000.000
G1 F2220.000 E14.75603
G1 Z1.250
G92 E0
G1 X88.950 Y71.701 F15000.000
G1 X89.394 Y73.638
G1 X89.837 Y74.673
G1 Z0.250
G1 F2220.000 E1.75000
G1 X89.622 Y74.459 F960.000 E1.76839
G1 X88.629 Y74.291 E1.82948
G1 X89.717 Y75.379 E1.92282
G1 X89.598 Y76.085 E1.96624
G1 X87.636 Y74.123 E2.13453
G1 X86.748 Y74.060 E2.18852
G1 X89.479 Y76.791 E2.42273
G1 X89.359 Y77.497 E2.46614
G1 X86.629 Y74.766 E2.70035
G1 X86.509 Y75.472 E2.74377
G1 X89.240 Y78.203 E2.97798
G1 F2220.000 E1.22798
G1 Z1.250
G92 E0
G1 X90.017 Y78.230 F15000.000
G1 X97.372 Y80.237
G1 X96.793 Y80.804
G1 Z0.250
G1 F2220.000 E1.75000
G1 X97.606 Y82.443 F960.000 E1.86099
G1 X95.063 Y79.900 E2.07911
G1 X94.029 Y79.691 E2.14313
G1 X97.497 Y83.159 E2.44061
G1 X97.378 Y83.865 E2.48403
G1 X93.036 Y79.523 E2.85646
G1 X92.042 Y79.355 E2.91756
G1 X97.138 Y84.450 E3.35459
G1 X96.721 Y84.858 E3.38998
G1 X91.049 Y79.187 E3.87644
G1 X90.056 Y79.019 E3.93753
G1 X96.304 Y85.266 E4.47342
G1 X95.815 Y85.603 E4.50940
G1 X85.909 Y75.697 E5.35908
G1 X84.916 Y75.529 E5.42017
G1 X95.096 Y85.709 E6.29337
G1 X94.377 Y85.816 E6.33745
G1 X83.923 Y75.361 E7.23417
G1 X82.930 Y75.193 E7.29526
G1 X93.548 Y85.812 E8.20606
G1 X92.555 Y85.644 E8.26716
G1 X81.936 Y75.025 E9.17795
G1 X80.943 Y74.857 E9.23905
G1 X91.562 Y85.476 E10.14984
G1 X90.568 Y85.308 E10.21094
G1 X79.950 Y74.689 E11.12172
G1 X78.957 Y74.521 E11.18282
G1 X89.575 Y85.140 E12.09359
G1 X88.582 Y84.972 E12.15469
G1 X77.963 Y74.353 E13.06547
G1 X76.970 Y74.185 E13.12656
G1 X88.046 Y85.261 E14.07657
G1 X87.927 Y85.967 E14.11998
G1 X75.977 Y74.017 E15.14494
G1 X74.984 Y73.849 E15.20603
G1 X87.807 Y86.673 E16.30594
G1 X87.688 Y87.379 E16.34936
G1 X73.991 Y73.681 E17.52422
G1 X72.997 Y73.513 E17.58531
G1 X87.569 Y88.084 E18.83512
G1 X87.449 Y88.790 E18.87854
G1 X72.004 Y73.345 E20.20330
G1 X71.011 Y73.177 F15000.000
G1 X87.029 Y89.196 F960.000 E21.57724
G1 X86.036 Y89.028 E21.63833
G1 X84.480 Y87.471 E21.77182
G1 X84.291 Y87.282 F15000.000
G1 X67.772 Y70.763 F960.000 E23.18869
G1 X67.566 Y71.383 E23.22828
G1 X83.297 Y87.114 E24.57760
G1 X82.304 Y86.946 E24.63870
G1 X81.932 Y86.574 E24.67059
G1 X81.804 Y86.446 F15000.000
G1 X67.447 Y72.089 F960.000 E25.90203
G1 X67.327 Y72.794 E25.94545
G1 X80.810 Y86.278 E27.10194
G1 X79.817 Y86.110 E27.16303
G1 X67.208 Y73.500 E28.24457
G1 X65.754 Y73.697 F15000.000
G1 X65.994 Y73.937 F960.000 E28.26511
G1 X66.463 Y73.580 E28.30083
G1 X78.824 Y85.942 E29.36109
G1 X77.831 Y85.774 E29.42218
G1 X66.664 Y74.607 E30.37998
G1 X66.436 Y75.205 E30.41877
G1 X76.838 Y85.606 E31.31089
G1 X75.844 Y85.438 E31.37199
G1 X66.209 Y75.802 E32.19845
G1 X65.981 Y76.400 E32.23723
G1 X74.851 Y85.270 E32.99802
G1 X73.858 Y85.102 E33.05912
G1 X65.051 Y76.294 E33.81455
G1 X64.420 Y76.489 E33.85456
G1 X72.865 Y84.934 E34.57885
G1 X71.871 Y84.766 E34.63995
G1 X64.070 Y76.964 E35.30913
G1 X63.934 Y78.478 F15000.000
G1 X62.540 Y77.085 F960.000 E35.42867
G1 X63.213 Y76.932 E35.47052
G1 X70.878 Y84.598 E36.12799
G1 X69.885 Y84.430 E36.18908
G1 X65.450 Y79.995 E36.56945
G1 X65.475 Y80.845 E36.62100
G1 X68.892 Y84.262 E36.91407
G1 X68.506 Y84.701 E36.94954
G1 X65.499 Y81.695 E37.20741
G1 X65.600 Y82.620 F15000.000
G1 X64.863 Y81.884 F960.000 E37.27056
G1 X64.408 Y82.253 E37.30614
G1 X64.332 Y82.178 E37.31261
G1 X65.656 Y82.676 F15000.000
G1 X68.386 Y85.407 F960.000 E37.54682
G1 X68.158 Y86.004 E37.58558
G1 X65.536 Y83.382 E37.81045
G1 X65.417 Y84.088 E37.85387
G1 X67.165 Y85.836 E38.00379
G1 X66.172 Y85.668 E38.06488
G1 X65.298 Y84.794 E38.13985
G1 X65.179 Y85.500 E38.18328
G1 F2220.000 E36.43328
G1 Z1.250
G92 E0
G1 X65.650 Y86.362 F15000.000
G1 X65.184 Y80.291
G1 X64.920 Y79.465
G1 Z0.250
G1 F2220.000 E1.75000
G1 X64.062 Y78.607 F960.000 E1.82358
G1 X62.742 Y78.112 F15000.000
G1 X62.373 Y77.743 F960.000 E1.85519
G1 F2220.000 E0.10519
G1 Z1.250
G92 E0
G1 X61.847 Y78.323 F15000.000
G1 X71.359 Y72.454
G1 X70.535 Y72.702
G1 Z0.250
G1 F2220.000 E1.75000
G1 X68.765 Y70.931 F960.000 E1.90186
G1 X69.758 Y71.099 E1.96295
G1 X70.655 Y71.996 E2.03986
G1 X70.774 Y71.290 E2.08328
G1 X70.751 Y71.267 E2.08524
G1 F2220.000 E0.33524
G1 Z1.250
G92 E0
G1 X70.305 Y70.410 F15000.000
G1 X71.359 Y72.454
G1 X83.605 Y88.020
G1 X84.360 Y88.177
G1 Z0.250
G1 F2220.000 E1.75000
G1 X85.043 Y88.860 F960.000 E1.80854
G1 F2220.000 E0.05854
G1 Z1.250
G92 E0
G1 X84.739 Y89.590 F15000.000
G1 X83.605 Y88.020
G1 X80.606 Y87.025
G1 X69.221 Y85.099
G1 X67.553 Y86.683
G1 X66.094 Y88.299
G1 X66.411 Y87.574
G1 Z0.250
G1 F2220.000 E1.75000
G1 X66.503 Y87.293 F600.000 E1.75811
G1 X66.449 Y87.240 E1.76019
G1 X66.557 Y86.974 E1.76804
G1 X66.503 Y86.921 E1.77012
G1 X66.611 Y86.655 E1.77797
G1 X66.557 Y86.602 E1.78006
G1 X66.664 Y86.336 E1.78790
G1 X66.611 Y86.283 E1.78999
G1 X66.718 Y86.017 E1.79784
G1 F2220.000 E0.04784
G1 Z1.250
G92 E0
G1 X67.553 Y86.683 F15000.000
G1 X68.403 Y70.088
G1 X69.237 Y70.754
G1 Z0.250
G1 F2220.000 E1.75000
G1 X69.345 Y70.489 F600.000 E1.75785
G1 X69.291 Y70.435 E1.75994
G1 X69.399 Y70.170 E1.76778
G1 X69.345 Y70.116 E1.76987
G1 X69.453 Y69.851 E1.77771
G1 X69.399 Y69.797 E1.77980
G1 X69.507 Y69.532 E1.78765
G1 X69.453 Y69.478 E1.78973
G1 X69.545 Y69.197 E1.79784
G1 F2220.000 E0.04784
G1 Z1.250
G92 E0
G1 X69.861 Y68.472 F15000.000
G1 X70.305 Y70.410
G1 X71.359 Y72.454
G1 X85.824 Y74.901
G1 X87.492 Y73.317
G1 X88.326 Y73.983
G1 Z0.250
G1 F2220.000 E1.75000
G1 X88.434 Y73.717 F600.000 E1.75785
G1 X88.380 Y73.664 E1.75994
G1 X88.488 Y73.398 E1.76778
G1 X88.434 Y73.345 E1.76987
G1 X88.542 Y73.079 E1.77771
G1 X88.488 Y73.026 E1.77980
G1 X88.596 Y72.760 E1.78765
G1 X88.542 Y72.707 E1.78973
G1 X88.634 Y72.426 E1.79784
G1 F2220.000 E0.04784
G1 Z1.250
G92 E0
G1 X88.950 Y71.701 F15000.000
G1 X85.183 Y91.528
G1 X85.500 Y90.803
G1 Z0.250
G1 F2220.000 E1.75000
G1 X85.591 Y90.522 F600.000 E1.75811
G1 X85.538 Y90.468 E1.76019
G1 X85.645 Y90.203 E1.76804
G1 X85.592 Y90.149 E1.77012
G1 X85.699 Y89.884 E1.77797
G1 X85.646 Y89.830 E1.78006
G1 X85.753 Y89.565 E1.78790
G1 X85.700 Y89.511 E1.78999
G1 X85.807 Y89.246 E1.79784
M104 S175 ; set temperature
G1 F2220.000 E0.04784
G1 Z1.450
G92 E0
G1 X86.491 Y89.887 F15000.000
G1 X83.605 Y88.020
G1 X80.606 Y87.025
G1 X63.697 Y81.923
G1 X62.916 Y81.313
G1 Z0.450
G1 F2220.000 E1.75000
G1 X62.916 Y81.310 F2400.000 E1.75004
G1 F2220.000 E0.00004
G1 Z1.450
G92 E0
G1 X63.697 Y81.923 F15000.000
G1 X64.750 Y83.406
G1 X65.184 Y80.291
G1 X62.167 Y76.428
G1 X61.216 Y76.144
G1 Z0.450
