; generated by Slic3r 0.9.9 on 2013-07-04 at 17:42:21

; H-PLA-03-025-1

; layer_height = 0.25
; perimeters = 2
; top_solid_layers = 4
; bottom_solid_layers = 3
; fill_density = 0.2
; perimeter_speed = 20
; infill_speed = 32
; travel_speed = 250
; nozzle_diameter = 0.3
; filament_diameter = 1.75
; extrusion_multiplier = 1
; perimeters extrusion width = 0.32mm
; infill extrusion width = 0.32mm
; solid infill extrusion width = 0.32mm
; top infill extrusion width = 0.32mm
; first layer extrusion width = 0.63mm

G21 ; set units to millimeters
M107
M190 S57 ; wait for bed temperature to be reached
M104 S200 ; set temperature
G28
G1 Z0.25 F200
G1 X15 Y20 F12000
M109 S200 ; wait for temperature to be reached
G90 ; use absolute coordinates
G92 E0
M82 ; use absolute distances for extrusion
G1 F2220.000 E-1.75000
G1 Z1.250
G92 E0
G1 X62.073 Y64.535 F15000.000
G1 Z0.250
G1 F2220.000 E1.75000
G1 X62.283 Y64.335 F600.000 E1.76722
G1 X62.733 Y63.975 E1.80144
G1 X63.213 Y63.655 E1.83570
G1 X66.053 Y62.095 E2.02812
G1 X66.543 Y61.845 E2.06079
G1 X67.053 Y61.645 E2.09332
G1 X67.583 Y61.485 E2.12620
G1 X67.853 Y61.425 E2.14263
G1 X68.663 Y61.305 E2.19125
G1 X68.943 Y61.285 E2.20792
G1 X69.483 Y61.285 E2.23999
G1 X70.303 Y61.375 E2.28898
G1 X90.733 Y64.825 E3.51939
G1 X91.263 Y64.965 E3.55194
G1 X91.783 Y65.145 E3.58462
G1 X92.293 Y65.375 E3.61784
G1 X92.773 Y65.635 E3.65026
G1 X93.233 Y65.945 E3.68320
G1 X93.873 Y66.475 E3.73255
G1 X102.453 Y75.285 E4.46284
G1 X102.903 Y75.795 E4.50323
G1 X103.103 Y76.065 E4.52319
G1 X103.473 Y76.645 E4.56404
G1 X103.633 Y76.945 E4.58423
G1 X104.823 Y79.345 E4.74332
G1 X105.143 Y80.105 E4.79229
G1 X105.303 Y80.635 E4.82516
G1 X105.363 Y80.905 E4.84159
G1 X105.453 Y81.445 E4.87410
G1 X105.503 Y81.995 E4.90689
G1 X105.503 Y82.555 E4.94015
G1 X105.453 Y83.105 E4.97295
G1 X104.903 Y86.295 E5.16518
G1 X104.663 Y87.135 E5.21706
G1 X104.433 Y87.675 E5.25191
G1 X104.163 Y88.195 E5.28671
G1 X103.853 Y88.685 E5.32114
G1 X103.673 Y88.925 E5.33896
G1 X103.093 Y89.575 E5.39069
G1 X100.963 Y91.665 E5.56790
G1 X100.513 Y92.035 E5.60250
G1 X100.023 Y92.365 E5.63758
G1 X99.503 Y92.655 E5.67294
G1 X88.493 Y98.145 E6.40354
G1 X87.673 Y98.445 E6.45539
G1 X87.103 Y98.585 E6.49025
G1 X86.813 Y98.635 E6.50773
G1 X86.233 Y98.695 E6.54235
G1 X85.653 Y98.705 E6.57680
G1 X85.363 Y98.695 E6.59403
G1 X84.783 Y98.625 E6.62873
G1 X64.573 Y95.215 E7.84586
G1 X64.303 Y95.165 E7.86217
G1 X63.763 Y95.025 E7.89529
G1 X63.243 Y94.845 E7.92797
G1 X62.733 Y94.615 E7.96119
G1 X62.493 Y94.485 E7.97740
G1 X62.023 Y94.195 E8.01020
G1 X61.353 Y93.695 E8.05985
G1 X60.763 Y93.105 E8.10940
G1 X58.623 Y90.695 E8.30079
G1 X58.443 Y90.465 E8.31814
G1 X58.123 Y89.995 E8.35190
G1 X57.723 Y89.245 E8.40238
G1 X57.423 Y88.445 E8.45312
G1 X54.883 Y80.105 E8.97085
G1 X54.593 Y78.835 E9.04821
G1 X54.543 Y78.515 E9.06744
G1 X54.493 Y77.885 E9.10497
G1 X54.513 Y76.775 E9.17090
G1 X54.583 Y76.155 E9.20795
G1 X54.713 Y75.555 E9.24441
G1 X55.053 Y74.465 E9.31222
G1 X55.313 Y73.855 E9.35159
G1 X55.633 Y73.275 E9.39093
G1 X56.173 Y72.445 E9.44974
G1 X61.313 Y65.405 E9.96738
G1 X61.673 Y64.945 E10.00206
G1 X62.012 Y64.596 E10.03099
G1 F2220.000 E8.28099
G1 Z1.250
G92 E0
G1 X67.334 Y70.269 F15000.000
G1 Z0.250
G1 F2220.000 E1.75000
G1 X68.859 Y70.527 F600.000 E1.84182
G1 X69.122 Y68.971 E1.93552
G1 X69.420 Y68.759 E1.95725
G1 X69.781 Y68.821 E1.97898
G1 X69.993 Y69.119 E2.00070
G1 X69.730 Y70.674 E2.09440
G1 X71.255 Y70.932 E2.18624
G1 X70.948 Y72.747 E2.29551
G1 X86.116 Y75.312 E3.20909
G1 X86.423 Y73.498 E3.31835
G1 X87.948 Y73.756 E3.41017
G1 X88.211 Y72.200 E3.50387
G1 X88.509 Y71.988 E3.52560
G1 X88.870 Y72.049 E3.54732
G1 X89.082 Y72.347 E3.56905
G1 X88.819 Y73.903 E3.66275
G1 X90.344 Y74.161 E3.75459
G1 X89.606 Y78.523 E4.01728
G1 X95.100 Y79.452 E4.34819
G1 X97.104 Y80.499 E4.48247
G1 X98.046 Y82.397 E4.60828
G1 X97.693 Y84.486 E4.73409
G1 X96.179 Y85.968 E4.85990
G1 X93.942 Y86.298 E4.99419
G1 X88.448 Y85.369 E5.32510
G1 X87.710 Y89.731 E5.58780
G1 X86.185 Y89.473 E5.67964
G1 X85.922 Y91.029 E5.77334
G1 X85.624 Y91.241 E5.79506
G1 X85.263 Y91.180 E5.81679
G1 X85.051 Y90.881 E5.83851
G1 X85.315 Y89.326 E5.93222
G1 X83.790 Y89.068 E6.02406
G1 X84.028 Y87.658 E6.10898
G1 X81.404 Y87.214 E6.26703
G1 X81.472 Y86.810 E6.29137
G1 X68.928 Y84.688 E7.04690
G1 X68.621 Y86.502 E7.15617
G1 X67.096 Y86.244 E7.24801
G1 X66.833 Y87.800 E7.34171
G1 X66.535 Y88.012 E7.36344
G1 X66.174 Y87.951 E7.38516
G1 X65.963 Y87.653 E7.40689
G1 X66.226 Y86.097 E7.50059
G1 X64.701 Y85.839 E7.59243
G1 X65.193 Y82.928 E7.76774
G1 X64.227 Y82.631 E7.82777
G1 X64.103 Y82.553 E7.83645
G1 X64.004 Y82.446 E7.84515
G1 X63.935 Y82.317 E7.85383
G1 X63.902 Y82.174 E7.86252
G1 X63.908 Y82.028 E7.87122
G1 X63.951 Y81.888 E7.87991
G1 X64.029 Y81.764 E7.88860
G1 X64.136 Y81.664 E7.89729
G1 X64.265 Y81.596 E7.90597
G1 X65.077 Y81.410 E7.95542
G1 X65.034 Y79.904 E8.04491
G1 X63.468 Y79.639 E8.13923
G1 X63.607 Y78.811 E8.18909
G1 X62.523 Y78.478 E8.25646
G1 X62.294 Y78.334 E8.27251
G1 X62.110 Y78.136 E8.28857
G1 X61.984 Y77.897 E8.30462
G1 X61.923 Y77.633 E8.32068
G1 X61.933 Y77.363 E8.33673
G1 X62.013 Y77.105 E8.35279
G1 X62.156 Y76.876 E8.36885
G1 X62.354 Y76.692 E8.38489
G1 X62.593 Y76.565 E8.40095
G1 X62.857 Y76.505 E8.41700
G1 X63.991 Y76.547 E8.48439
G1 X64.131 Y75.719 E8.53425
G1 X65.697 Y75.984 E8.62856
G1 X66.233 Y74.576 E8.71804
G1 X65.527 Y74.133 E8.76750
G1 X65.428 Y74.026 E8.77619
G1 X65.359 Y73.897 E8.78488
G1 X65.327 Y73.754 E8.79356
G1 X65.332 Y73.608 E8.80226
G1 X65.375 Y73.468 E8.81095
G1 X65.453 Y73.344 E8.81965
G1 X65.560 Y73.244 E8.82834
G1 X65.689 Y73.176 E8.83702
G1 X65.832 Y73.143 E8.84571
G1 X66.842 Y73.180 E8.90573
G1 X67.320 Y70.354 E9.07596
G1 X66.866 Y69.611 F15000.000
G1 X68.391 Y69.869 F600.000 E9.16779
G1 X68.598 Y68.643 E9.24161
G1 X69.282 Y68.157 E9.29145
G1 X70.110 Y68.297 E9.34128
G1 X70.596 Y68.981 E9.39111
G1 X70.389 Y70.206 E9.46494
G1 X71.913 Y70.464 E9.55677
G1 X71.607 Y72.279 E9.66604
G1 X85.648 Y74.653 E10.51176
G1 X85.955 Y72.839 E10.62103
G1 X87.480 Y73.097 E10.71285
G1 X87.687 Y71.871 E10.78667
G1 X88.371 Y71.385 E10.83651
G1 X89.199 Y71.525 E10.88634
G1 X89.685 Y72.209 E10.93617
G1 X89.477 Y73.435 E11.01000
G1 X91.002 Y73.693 E11.10184
G1 X90.265 Y78.054 E11.36453
G1 X95.285 Y78.904 E11.66688
G1 X97.533 Y80.079 E11.81757
G1 X98.640 Y82.309 E11.96542
G1 X98.225 Y84.764 E12.11328
G1 X96.446 Y86.506 E12.26113
G1 X93.936 Y86.877 E12.41182
G1 X88.916 Y86.028 E12.71418
G1 X88.178 Y90.389 E12.97688
G1 X86.653 Y90.132 E13.06871
G1 X86.446 Y91.357 E13.14254
G1 X85.762 Y91.843 E13.19237
G1 X84.935 Y91.703 E13.24220
G1 X84.449 Y91.019 E13.29204
G1 X84.656 Y89.794 E13.36586
G1 X83.131 Y89.536 E13.45770
G1 X83.370 Y88.126 E13.54262
G1 X80.745 Y87.682 E13.70068
G1 X80.814 Y87.278 E13.72502
G1 X69.396 Y85.347 E14.41269
G1 X69.089 Y87.161 E14.52196
G1 X67.564 Y86.903 E14.61379
G1 X67.357 Y88.129 E14.68762
G1 X66.673 Y88.615 E14.73745
G1 X65.846 Y88.475 E14.78729
G1 X65.360 Y87.791 E14.83712
G1 X65.567 Y86.565 E14.91095
G1 X64.042 Y86.307 E15.00278
G1 X64.546 Y83.327 E15.18227
G1 X63.987 Y83.155 E15.21701
G1 X63.736 Y82.997 E15.23463
G1 X63.534 Y82.780 E15.25226
G1 X63.395 Y82.518 E15.26988
G1 X63.329 Y82.228 E15.28750
G1 X63.340 Y81.932 E15.30513
G1 X63.427 Y81.648 E15.32275
G1 X63.585 Y81.397 E15.34038
G1 X63.802 Y81.195 E15.35800
G1 X64.064 Y81.056 E15.37562
G1 X64.492 Y80.958 E15.40169
G1 X64.476 Y80.389 E15.43549
G1 X62.809 Y80.107 E15.53588
G1 X62.961 Y79.210 E15.58991
G1 X62.283 Y79.002 E15.63200
G1 X61.927 Y78.778 E15.65698
G1 X61.640 Y78.470 E15.68198
G1 X61.443 Y78.098 E15.70696
G1 X61.349 Y77.688 E15.73195
G1 X61.365 Y77.267 E15.75694
G1 X61.489 Y76.865 E15.78193
G1 X61.712 Y76.509 E15.80691
G1 X62.020 Y76.222 E15.83190
G1 X62.392 Y76.025 E15.85689
G1 X62.802 Y75.931 E15.88188
G1 X63.511 Y75.957 E15.92398
G1 X63.663 Y75.060 E15.97801
G1 X65.330 Y75.342 E16.07841
G1 X65.532 Y74.810 E16.11219
G1 X65.160 Y74.577 E16.13827
G1 X64.958 Y74.360 E16.15590
G1 X64.819 Y74.097 E16.17352
G1 X64.753 Y73.808 E16.19114
G1 X64.764 Y73.511 E16.20877
G1 X64.851 Y73.228 E16.22640
G1 X65.009 Y72.976 E16.24402
G1 X65.226 Y72.774 E16.26164
G1 X65.488 Y72.635 E16.27927
G1 X65.778 Y72.569 E16.29689
G1 X66.362 Y72.591 E16.33163
G1 X66.852 Y69.695 E16.50602
G1 X67.307 Y69.975 F15000.000
G1 F2220.000 E14.75602
G1 Z1.250
G92 E0
G1 X67.042 Y69.858 F15000.000
G1 X68.403 Y70.088
G1 X66.581 Y72.584
G1 X67.208 Y73.500
G1 Z0.250
G1 F2220.000 E1.75000
G1 X79.817 Y86.110 F960.000 E2.83154
G1 X80.811 Y86.278 E2.89264
G1 X67.327 Y72.794 E4.04913
G1 X67.447 Y72.089 E4.09255
G1 X81.804 Y86.446 E5.32400
G1 X81.932 Y86.574 F15000.000
G1 X82.304 Y86.946 F960.000 E5.35590
G1 X83.297 Y87.114 E5.41700
G1 X67.566 Y71.383 E6.76631
G1 X67.772 Y70.763 E6.80591
G1 X84.291 Y87.282 E8.22277
G1 X84.480 Y87.471 F15000.000
G1 X86.036 Y89.028 F960.000 E8.35627
G1 X87.029 Y89.196 E8.41736
G1 X71.011 Y73.177 E9.79131
G1 X70.535 Y72.702 F15000.000
G1 X68.765 Y70.931 F960.000 E9.94317
G1 X69.758 Y71.099 E10.00426
G1 X70.655 Y71.996 E10.08118
G1 X70.774 Y71.290 E10.12460
G1 X70.751 Y71.267 E10.12656
G1 F2220.000 E8.37656
G1 Z1.250
G92 E0
G1 X70.305 Y70.410 F15000.000
G1 X71.359 Y72.454
G1 X72.004 Y73.345
G1 Z0.250
G1 F2220.000 E1.75000
G1 X87.449 Y88.790 F960.000 E3.07476
G1 X87.569 Y88.084 E3.11818
G1 X72.997 Y73.513 E4.36798
G1 X73.991 Y73.681 E4.42908
G1 X87.688 Y87.379 E5.60393
G1 X87.807 Y86.673 E5.64735
G1 X74.984 Y73.849 E6.74725
G1 X75.977 Y74.017 E6.80835
G1 X87.927 Y85.967 E7.83330
G1 X88.046 Y85.261 E7.87671
G1 X76.970 Y74.185 E8.82671
G1 X77.963 Y74.353 E8.88781
G1 X88.582 Y84.972 E9.79859
G1 X89.575 Y85.140 E9.85969
G1 X78.957 Y74.521 E10.77047
G1 X79.950 Y74.689 E10.83157
G1 X90.569 Y85.308 E11.74236
G1 X91.562 Y85.476 E11.80346
G1 X80.943 Y74.857 E12.71425
G1 X81.936 Y75.025 E12.77534
G1 X92.555 Y85.644 E13.68614
G1 X93.548 Y85.812 E13.74724
G1 X82.930 Y75.193 E14.65804
G1 X83.923 Y75.361 E14.71914
G1 X94.377 Y85.816 E15.61585
G1 X95.096 Y85.709 E15.65994
G1 X84.916 Y75.529 E16.53313
G1 X85.909 Y75.697 E16.59423
G1 X95.815 Y85.603 E17.44391
G1 X96.304 Y85.266 E17.47989
G1 X90.056 Y79.019 E18.01578
G1 X91.049 Y79.187 E18.07687
G1 X96.721 Y84.858 E18.56333
G1 X97.138 Y84.450 E18.59873
G1 X92.043 Y79.355 E19.03575
G1 X93.036 Y79.523 E19.09685
G1 X97.378 Y83.865 E19.46928
G1 X97.497 Y83.159 E19.51270
G1 X94.029 Y79.691 E19.81017
G1 X95.064 Y79.900 E19.87419
G1 X97.606 Y82.443 E20.09230
G1 X96.793 Y80.804 E20.20327
G1 F2220.000 E18.45327
G1 Z1.250
G92 E0
G1 X97.372 Y80.237 F15000.000
G1 X90.017 Y78.230
G1 X89.240 Y78.203
G1 Z0.250
G1 F2220.000 E1.75000
G1 X86.509 Y75.472 F960.000 E1.98421
G1 X86.629 Y74.766 E2.02763
G1 X89.359 Y77.497 E2.26185
G1 X89.479 Y76.791 E2.30526
G1 X86.748 Y74.060 E2.53948
G1 X87.636 Y74.123 E2.59347
G1 X89.598 Y76.085 E2.76176
G1 X89.718 Y75.379 E2.80517
G1 X88.629 Y74.291 E2.89851
G1 X89.623 Y74.459 E2.95961
G1 X89.837 Y74.673 E2.97799
G1 F2220.000 E1.22799
G1 Z1.250
G92 E0
G1 X89.394 Y73.638 F15000.000
G1 X83.605 Y88.020
G1 X84.360 Y88.177
G1 Z0.250
G1 F2220.000 E1.75000
G1 X85.043 Y88.860 F960.000 E1.80854
G1 F2220.000 E0.05854
G1 Z1.250
G92 E0
G1 X84.903 Y89.618 F15000.000
G1 X83.605 Y88.020
G1 X80.606 Y87.025
G1 X69.221 Y85.099
G1 X65.810 Y86.389
G1 X65.179 Y85.500
G1 Z0.250
G1 F2220.000 E1.75000
G1 X65.298 Y84.794 F960.000 E1.79343
G1 X66.172 Y85.668 E1.86840
G1 X67.165 Y85.836 E1.92949
G1 X65.417 Y84.088 E2.07941
G1 X65.537 Y83.382 E2.12282
G1 X68.158 Y86.004 E2.34769
G1 X68.386 Y85.407 E2.38646
G1 X65.656 Y82.676 E2.62066
G1 X65.600 Y82.620 F15000.000
G1 X64.864 Y81.884 F960.000 E2.68379
G1 X64.408 Y82.254 E2.71938
G1 X64.333 Y82.179 E2.72580
G1 X65.499 Y81.694 F15000.000
G1 X68.506 Y84.701 F960.000 E2.98370
G1 X68.892 Y84.262 E3.01916
G1 X65.475 Y80.845 E3.31225
G1 X65.450 Y79.995 E3.36380
G1 X69.885 Y84.430 E3.74417
G1 X70.878 Y84.598 E3.80526
G1 X63.213 Y76.933 E4.46273
G1 X62.540 Y77.085 E4.50458
G1 X63.934 Y78.478 E4.62412
G1 X64.062 Y78.607 F15000.000
G1 X64.920 Y79.465 F960.000 E4.69773
G1 F2220.000 E2.94773
G1 Z1.250
G92 E0
G1 X65.184 Y80.292 F15000.000
G1 X61.847 Y78.323
G1 X62.742 Y78.112
G1 Z0.250
G1 F2220.000 E1.75000
G1 X62.373 Y77.743 F960.000 E1.78162
G1 F2220.000 E0.03162
G1 Z1.250
G92 E0
G1 X61.847 Y78.323 F15000.000
G1 X63.708 Y76.075
G1 X64.070 Y76.964
G1 Z0.250
G1 F2220.000 E1.75000
G1 X71.872 Y84.766 F960.000 E2.41918
G1 X72.865 Y84.934 E2.48028
G1 X64.420 Y76.489 E3.20458
G1 X65.051 Y76.294 E3.24459
G1 X73.858 Y85.102 E4.00002
G1 X74.851 Y85.270 E4.06111
G1 X65.981 Y76.400 E4.82191
G1 X66.209 Y75.802 E4.86069
G1 X75.844 Y85.438 E5.68716
G1 X76.838 Y85.606 E5.74825
G1 X66.437 Y75.205 E6.64038
G1 X66.664 Y74.607 E6.67917
G1 X77.831 Y85.774 E7.63697
G1 X78.824 Y85.942 E7.69807
G1 X66.463 Y73.581 E8.75831
G1 X65.994 Y73.937 E8.79403
G1 X65.754 Y73.697 E8.81459
G1 F2220.000 E7.06459
G1 Z1.250
G92 E0
G1 X65.098 Y73.637 F15000.000
G1 X71.359 Y72.454
G1 X66.584 Y88.228
G1 X66.411 Y87.574
G1 Z0.250
G1 F2220.000 E1.75000
G1 X66.503 Y87.293 F600.000 E1.75811
G1 X66.449 Y87.240 E1.76019
G1 X66.557 Y86.974 E1.76803
G1 X66.503 Y86.921 E1.77012
G1 X66.610 Y86.655 E1.77796
G1 X66.557 Y86.602 E1.78004
G1 X66.664 Y86.336 E1.78789
G1 X66.611 Y86.283 E1.78997
G1 X66.718 Y86.017 E1.79782
G1 F2220.000 E0.04782
G1 Z1.250
G92 E0
G1 X65.810 Y86.389 F15000.000
G1 X68.403 Y70.088
G1 X69.237 Y70.754
G1 Z0.250
G1 F2220.000 E1.75000
G1 X69.345 Y70.489 F600.000 E1.75785
G1 X69.291 Y70.435 E1.75994
G1 X69.399 Y70.170 E1.76778
G1 X69.345 Y70.116 E1.76987
G1 X69.453 Y69.851 E1.77772
G1 X69.399 Y69.797 E1.77981
G1 X69.507 Y69.532 E1.78765
G1 X69.453 Y69.478 E1.78974
G1 X69.545 Y69.197 E1.79784
G1 F2220.000 E0.04784
G1 Z1.250
G92 E0
G1 X69.861 Y68.472 F15000.000
G1 X66.581 Y72.584
G1 X85.824 Y74.901
G1 X87.651 Y73.343
G1 X88.326 Y73.983
G1 Z0.250
G1 F2220.000 E1.75000
G1 X88.434 Y73.717 F600.000 E1.75785
G1 X88.380 Y73.664 E1.75994
G1 X88.488 Y73.398 E1.76778
G1 X88.434 Y73.345 E1.76987
G1 X88.542 Y73.079 E1.77772
G1 X88.488 Y73.026 E1.77980
G1 X88.596 Y72.760 E1.78765
G1 X88.542 Y72.707 E1.78974
G1 X88.634 Y72.426 E1.79784
G1 F2220.000 E0.04784
G1 Z1.250
G92 E0
G1 X88.987 Y71.861 F15000.000
G1 X85.814 Y91.544
G1 X85.500 Y90.803
G1 Z0.250
G1 F2220.000 E1.75000
G1 X85.591 Y90.522 F600.000 E1.75810
G1 X85.538 Y90.468 E1.76019
G1 X85.645 Y90.203 E1.76803
G1 X85.592 Y90.149 E1.77011
G1 X85.699 Y89.884 E1.77796
G1 X85.646 Y89.830 E1.78004
G1 X85.753 Y89.565 E1.78788
G1 X85.700 Y89.512 E1.78996
G1 X85.807 Y89.246 E1.79781
M104 S175 ; set temperature
G1 F2220.000 E0.04781
G1 Z1.500
G92 E0
G1 X86.504 Y89.922 F15000.000
G1 Z0.500
G1 F2220.000 E1.75000
G1 X86.279 Y91.253 F1200.000 E1.79374
G1 X85.718 Y91.651 E1.81605
G1 X85.039 Y91.537 E1.83835
G1 X84.641 Y90.975 E1.86066
G1 X84.866 Y89.645 E1.90440
G1 X83.341 Y89.387 E1.95452
G1 X83.579 Y87.977 E2.00086
G1 X80.955 Y87.533 E2.08711
G1 X81.024 Y87.129 E2.10039
G1 X69.247 Y85.137 E2.48744
G1 X68.940 Y86.951 E2.54707
G1 X67.415 Y86.693 E2.59719
G1 X67.190 Y88.024 E2.64093
G1 X66.629 Y88.423 E2.66324
G1 X65.951 Y88.308 E2.68554
G1 X65.552 Y87.747 E2.70785
G1 X65.777 Y86.416 E2.75159
G1 X64.252 Y86.158 E2.80171
G1 X64.752 Y83.200 E2.89892
G1 X64.064 Y82.988 E2.92228
G1 X63.853 Y82.856 E2.93034
G1 X63.683 Y82.674 E2.93841
G1 X63.567 Y82.454 E2.94647
G1 X63.512 Y82.211 E2.95453
G1 X63.521 Y81.963 E2.96260
G1 X63.594 Y81.725 E2.97066
G1 X63.726 Y81.514 E2.97873
G1 X63.908 Y81.344 E2.98679
G1 X64.128 Y81.228 E2.99486
G1 X64.678 Y81.102 E3.01315
G1 X64.653 Y80.235 E3.04127
G1 X63.019 Y79.958 E3.09499
G1 X63.167 Y79.083 E3.12375
G1 X62.360 Y78.835 E3.15111
G1 X62.044 Y78.637 E3.16319
G1 X61.790 Y78.363 E3.17528
G1 X61.615 Y78.034 E3.18736
G1 X61.532 Y77.670 E3.19945
G1 X61.546 Y77.298 E3.21153
G1 X61.656 Y76.941 E3.22361
G1 X61.854 Y76.626 E3.23569
G1 X62.127 Y76.372 E3.24777
G1 X62.456 Y76.197 E3.25986
G1 X62.820 Y76.114 E3.27194
G1 X63.664 Y76.145 E3.29931
G1 X63.812 Y75.270 E3.32807
G1 X65.447 Y75.546 E3.38180
G1 X65.755 Y74.736 E3.40992
G1 X65.277 Y74.436 E3.42821
G1 X65.108 Y74.253 E3.43628
G1 X64.991 Y74.033 E3.44434
